/* XPM */
static char *blood_n_xpm[] = {
"64 64 5 1",
". c #0a0000",
"# c #000000",
"a c #1f0000",
"b c #3a0a08",
"r c #8a0a10",
"################################################################",
"#aabbbbbbbbbbbaa#aabbbbbbbbbbbaa#aabbbbbbbbbbbaa#aabbbbbbbbbbbaa",
"#aabbbbbbbbbbbaa#aabbbbbbbbbbbaa#aabbbbbbbbbbbaa#aabbbbbbbbbbbaa",
"#aabbbbbbbbbbbaa#aabbbbbbbbbbbaa#aabbbbbbbbbbbaa#aabbbbbbrrrbbaa",
"#aabbbbbbbbbbbaa#aabbbbbbbbbbbaa#aabbbbbbbbbbbaa#aabbbbbrrrrrbaa",
"#aabbbbbbbbbbbaa#aabbbbbbbbbbbaa#aabbbbbbbbbbbaa#aabbbbrrrrrrraa",
"#aabbbbbbbbbbbaa#aabbbbbbbbbbbaa#aabbbbbbbbbbbaa#aabbbrrrrrrrraa",
"#aabbbbbbbbbbbaa#aabbbbbbbbbbbaa#aabbbbbbbbbbbaa#aabbbbrrrrrrraa",
"#############################################rr########rrrrrrr##",
"bbbbbbbbbbaa#aabbbbbbbbbbbaa#aabbbbbbbbbbbarrrrrbbbbbbbrrrrrrrab",
"bbbbbbbbbbaa#aabbbbbbbbbbbaa#aabbbbbbbbbbbrrrrrrrbbbbbbbrrrrraab",
"bbbbbbbbbbaa#aabbbbbbbbbbbaa#aabbbbbbbbbbbrrrrrrrrbbbbbbbbrr#aab",
"bbbbbbbbbbaa#aabbbbbbbbbbbaa#aabbbbbbbbbbbrrrrrrrrbbbbbbbbra#aab",
"bbbbbbbbbbaa#aabbbbbbbbbbbaa#aabbbbbbbbbbbrrrrrrrrbbbbbbbbra#aab",
"bbbbbbbbbbaa#aabbbbbbbbbbbaa#aabbbbbbbbbbbrrrrrrrbbbbbbbbbaa#aab",
"bbbbbbbbbbaa#aabbbbbbbbbbbaa#aabbbbbbbbbbbarrrrrbbbbbbbbbbaa#aab",
"############################################rrr#################",
"#aabbbbbbbbbbbaa#aabbbbbbbbbbbaa#aabbbbbbbbbbraa#aabbbbbbbbbbbaa",
"#aabbbbbbbbbbbaa#aabbbbbbbbbbbaa#aabbbbbbbbbbbaa#aabbbbbbbbbbbaa",
"#aabbbbbbbbbbbaa#aabbbbbbbbbbbaa#aabbbbbbbbbbbaa#aabbbbbbbbbbbaa",
"#aabbbbbbbbbbbaa#aabbbbbbbbbbbaa#aabbbbbbbbbbbaa#aabbbbbbbbbbbaa",
"#aabbbbbbbbbbbaa#aabbbbbbbbbbbaa#aabbbbbbbbbbbaa#aabbbbbbbbbbbaa",
"#aabbbbbbbbbbbaa#aabbbbbbbbbbbaa#aabbbbbbbbbbbaa#aabbbbbbbbbbbaa",
"#aabbbbbbbbbbbaa#aabbbbbbbbbbbaa#aabbbbbbbbbbbaa#aabbbbbbbbbbbaa",
"################################################################",
"bbbbbbbbbbaa#aabbbbbbbbbbbaa#aabbbbbbbbbbbaa#aabbbbbbbbbbbaa#aab",
"bbbbbbbbbbaa#aabbbbbbbbbbbaa#aabbbbbbbbbbbaa#aabbbbbbbbbbbaa#aab",
"bbbbbbbbbbaa#aabbbbrrbbbbbaa#aabbbbbbbbbbbaa#aabbbbbbbbbbbaa#aab",
"bbbbbbbbbbaa#aabbbbrrrbbbbaa#aabbbbbbbbbbbaa#aabbbbbbbbbbbaa#aab",
"bbbbbbbbbbaa#aabbbrrrrrbbbaa#aabbbbbbbbbbbaa#aabbbbbbbbbbbaa#aab",
"bbbbbbbbbbaa#aabbbbrrrbbbbaa#aabbbbbbbbbbbaa#aabbbbbbbbbbbaa#aab",
"bbbbbbbbbbaa#aabbbbbrbbbbbaa#aabbbbbbbbbbbaa#aabbbbbbbbbbbaa#aab",
"############rrr#####r###########################################",
"#aabbbbbbbbrrrrr#aabrbbbbbbbbbaa#aabbbbbbbbbbbaa#aabbbbbbbbbbbaa",
"#aabbbbbbbbrrrrrraabrbbbbbbbbbaa#aabbbbbbbbbbbaa#aabbbbbbbbbbbaa",
"#aabbbbbbbrrrrrr#aabrbbbbbbbbbaa#rabbbbbbbbbbbaa#aabbbbbbbbbbbaa",
"#aabbbbbbbbrrrrr#aabrbbbbbbbbbarrrrrrbbbbbbbbbaa#aabbbbbbbbbbbaa",
"#aabbbbbbbbrrrrr#aabrbbbbbbbbrrrrrrrrbbbbbbbbbaa#aabbbbbbbbbbbaa",
"#aabbbbbbbbbrrra#aabrbbbbbbbbrrrrrrrrrbbbbbbbbaa#aabbbbbrrbbbbaa",
"#aabbbbbbbbbbraa#aabbbbbbbbbrrrrrrrrrrrbbbbbbbaa#aabbbrrrrrbbbaa",
"#############r###############rrrrrrrrrrrr############rrrrrrr####",
"bbbbbbbbbbaa#rabbbbbbbbbbbaa#rrrrrrrrrrrrbaa#aabbbbbbrrrrrrr#aab",
"bbbbbbbbbbaa#rabbbbbbbbbbbaa#rrrrrrrrrrrrraa#rabbbbbrrrrrrrrraab",
"bbbbbbbbbbaa#rabbbbbbbbbbbaa#arrrrrrrrrrrbarrrabbbbbbrrrrrrr#aab",
"bbbbbbbbbbaa#rabbbbbbbbbbbaa#arrrrrrrrrrrbarrrrbbbbbbrrrrrrr#aab",
"bbbbbbbbbbaa#rabbbbbbbbbbbaa#aabbrbbbrrrbbrrrrabbbbbbbrrrrra#aab",
"bbbbbbbbbbaa#aabbbbbbbbbbbaa#aabbrbbbbrbbbaarrabbbbbbbbbrbaa#aab",
"bbbbbbbbbbaa#aabbbbbbbbbbbaa#aabbrbbbbbbbbaaraabbbbbbbbbrbaa#aab",
"#################################r##########r###########r#######",
"#aabbbbbbbbbbbaa#aabbbbbbbbbbbaa#rabbbbbbbbbrbaa#aabbbbbrbbbbbaa",
"#aabbbbbbbbbbbaa#aabbbbbbbbbbbaa#rabbbbbbbbbrbaa#aabbbbbrbbbbbaa",
"#aabbbbbbbbbbbaa#aabbbbbbbbbbbaa#rabbbbbbbbbrbaa#aabbbbbrbbbbbaa",
"#aabbbbbbbbbbbaa#aabbbbbbbbbbbaa#rabbbbbbbbbrbaa#aabbbbbrbbbbbaa",
"#aabbbbbbbbbbbaa#aabbbbbbbbbbbaa#aabbbbbbbbbbbaa#aabbbbbrbbbbbaa",
"#aabbbbbbbbbbbaa#aabbbbbbbbbbbaa#aabbbbbbbbbbbaa#aabbbbbbbbbbbaa",
"#aabbbbbbbbbbbaa#aabbbbbbbbbbbaa#aabbbbbbbbbbbaa#aabbbbbbbbbbbaa",
"################################################################",
"bbbbbbbbbbaa#aabbbbbbbbbbbaa#aabbbbbbbbbbbaa#aabbbbbbbbbbbaa#aab",
"bbbbbbbbbbaa#aabbbbbbbbbbbaa#aabbbbbbbbbbbaa#aabbbbbbbbbbbaa#aab",
"bbbbbbbbbbaa#aabbbbbbbbbbbaa#aabbbbbbbbbbbaa#aabbbbbbbbbbbaa#aab",
"bbbbbbbbbbaa#aabbbbbbbbbbbaa#aabbbbbbbbbbbaa#aabbbbbbbbbbbaa#aab",
"bbbbbbbbbbaa#aabbbbbbbbbbbaa#aabbbbbbbbbbbaa#aabbbbbbbbbbbaa#aab",
"bbbbbbbbbbaa#aabbbbbbbbbbbaa#aabbbbbbbbbbbaa#aabbbbbbbbbbbaa#aab",
"bbbbbbbbbbaa#aabbbbbbbbbbbaa#aabbbbbbbbbbbaa#aabbbbbbbbbbbaa#aab"
};
