/* XPM */
static char *blood_s_xpm[] = {
"64 64 5 1",
". c #0a0000",
"# c #000000",
"a c #1f0000",
"b c #3a0a08",
"r c #8a0a10",
"################################################################",
"#aabbbbbbbbbbbaa#aabbbbbbbbbbbaa#aabbbbbbbbbbbaa#aabbbbbbbbbbbaa",
"#aabbbbbbbbbbbaa#aabbbbbbbbbbbaa#aabbbbbbbbbbbaa#aabbbbbbbbbbbaa",
"#aabbbbbbbbbbbaa#aabbbbbbbbbbbaa#aabbbbbbbbbbbaa#aabbbbbbbbbbbaa",
"#aabbbbbbbbbbbaa#aabbbbbbbrbbbaa#aabbbbbbbbbbbaa#aabbbbbbbbbbbaa",
"#aabbbbbbbbbbbaa#aabbbbbrrrrrbaa#aabbbbbbbbbbbaa#aabbbbbbbbbbbaa",
"#aabbbbbbbbbbbaa#aabbbbrrrrrrraa#aabbbbbbbbbbbaa#aabbbbbbbbbbbaa",
"#aabbbbbbbbbbbaa#aabbbrrrrrrrrra#aabbbbbbbbbbbaa#aabbbbbbbbbbbaa",
"#######################rrrrrrrr#################################",
"bbbbbbbbbbaa#aabbbbbbbbrrrrrrrrbbbbbbbbbbbaa#aabbbbbbbbbbbaa#aab",
"bbbbbbbbbbaa#aabbbbbbbbrrrrrrrabbbbbbbbbbbaa#aabbbbbbbbbbbaa#aab",
"bbbbbbbbbbaa#aabbbbbbbbbrrrrraabbbbbbbbbbbaa#aabbbbbbbbbbbaa#aab",
"bbbbbbbbbbaa#aabbbbbbbbbbbra#aabbbbbbbbbbbaa#aabbbbbbbbbbbaa#aab",
"bbbbbbbbbbaa#arbrbbbbbbbbbra#aabbbbbbbbbbbaa#aabbbbbbbbbbbaa#aab",
"bbbbbbbbbbaa#rrrrrbbbbbbbbra#aabbbbbbbbbbbaa#aabbbbbbbbbbbaa#aab",
"bbbbbbbbbbaarrrrrrrbbbbbbbra#aabbbbbbbbbbbaa#aabbbbbbbbbbbaa#aab",
"############rrrrrrr#############################################",
"#aabbbbbbbbrrrrrrrrbbbbbbbbbbbaa#aabbbbbbbbbbbaa#aabbbbbbbbbbbaa",
"#aabbbbbbbbbrrrrrrrbbbbbbbbbbbaa#aarbbbbbbbbbbaa#aabbbbbbbbbbbaa",
"#aabbbbbbbbbrrrrrrrbbbbbbbbbbbaa#rrrrrbbbbbbbbaa#aabbbbbbbbbbbaa",
"#aabbbbbbbbbbrrrrrabbbbbbbbbbbaarrrrrrrbbbbbbbaa#aabbbbbbbbbbbaa",
"#aabbbbbbbbbbbrr#aabbbbbbbbbbbaarrrrrrrbbbbbbbaa#aabbbbbbbbbbbaa",
"#aabbbbbbbbbbbar#aabbbbbbbbbbbaarrrrrrrrbbbbbbaa#aabbbbbbbbbbbaa",
"#aabbbbbbbbbbbar#aabbbbbbbbbbbarrrrrrrrbbbbbbbaa#aabbbbbbbbbbbaa",
"###############r################rrrrrrr#########################",
"bbbbbbbbbbaa#aarbbbbbbbbbbaa#aabbrrrrrbbbbaa#aabbbbbbbbbbbaa#aab",
"bbbbbbbbbbaa#aarbbbbbbbbbbaa#aabbbrrbbbbbbaa#aabbbbbbbbbbbaa#aab",
"bbbbbbbbbbaa#aabbbbbbbbbbbaa#aabbbbrbbbbbbaa#aabbbbbbbbbbbaa#aab",
"bbbbbbbbbbaa#aabbbbbbbbbbbaa#aabbbbrbbbbbbaa#aabbbbbbbbbbbaa#aab",
"bbbbbbbbbbaa#aabbbbbbbbbbbaa#aabbbbrbbbbbbaa#aabbbbbbbbbbbaa#aab",
"bbbbbbbbbbaa#aabbbbbbbbbbbaa#aabbbbbbbbbbbaa#aabbbbbbbbbbbaa#aab",
"bbbbbbbbbbaa#aabbrrbbbbbbbaa#aabbbbbbbbbbbaa#aabbbbbbbbbbbaa#aab",
"###############rrrrrr###########################################",
"#aabbbbbbbbbbbrrrrrrrrrbbbbbbbaa#aabbbbbbbbbbbaa#aabbbbbbbbbbbaa",
"#aabbbbbbbbbbbrrrrrrrrrbbbbbbraa#aabbbbbbbbbbbaa#aabbbbbbbbbbbaa",
"#aabbbbbbbbbbrrrrrrrrrrbbbrrrrra#aabbbbbbbbbbbaa#aabbbbbbbbbbbaa",
"#aabbbbbbbbbbrrrrrrrrrrrbrrrrrra#aabbbbbbbbbbbaa#aabbbbbbbbbbbaa",
"#aabbbbbbbbbbbrrrrrrrrrrbrrrrrrr#aabbbbbbbbbbbaa#aabbbbbbbbbbbaa",
"#aabbbbbbbbbbbrrrrrrrrrbbbrrrrra#aabbbbbbbbbbbaa#aabbbbbbbbbbbaa",
"#aabbbbbbbbbbbrrrrrrrrbbbbrrrrra#aabbbbbbbbbbbaa#aabbbbbbbbbbbaa",
"################rrrrrr######rr##################################",
"bbbbbbbbbbaa#aabbrrrbbbbbbaaraabbbbbbbbbbbaa#arbrbbbbbbbbbaa#aab",
"bbbbbbbbbbaa#aabbbrbbbbbbbaa#aabbbbbbbbbbbaarrrrrrbbbbbbbbaa#aab",
"bbbbbbbbbbaa#aabbbrbbbbbbbaa#aabbbbbbbbbbbaarrrrrrrrbbbbbbaa#aab",
"bbbbbbbbbbaa#aabbbbbbbbbbbaa#aabbbbbbbbbbbarrrrrrrrrbbbbbbaa#aab",
"bbbbbbbbbbaa#aabbbbbbbbbbbaa#aabbbbbbbbbbbarrrrrrrrrrbbbbbaa#aab",
"bbbbbbrrbbaa#aabbbbbbbbbbbaa#aabbbbbbbbbbbrrrrrrrrrrrbbbbbaa#aab",
"bbbbrrrrrbaa#aabbbbbbbbbbbaa#aabbbbbbbbbbbrrrrrrrrrrbbbbbbaa#aab",
"###rrrrrr##################################rrrrrrrrr############",
"#aarrrrrrbbbbbaa#aabbbbbbbbbbbaa#aabbbbbbbbbrrrrrrrbbbbbbbbbbbaa",
"#aabrrrrrbbbbbaa#aabbrbbbbbbbbaa#aabbbbbbbbbrrrrrrabbbbbbbbbbbaa",
"#aabrrrrrbbbbbaa#aabrrrrrbbbbbaa#aabbbbbbbbbbbrr#aabbbbbbbbbbbaa",
"#aabbrrbbbbbbbaa#aarrrrrrrbbbbaa#aabbbbbbbbbbbar#aabbbbbbbbbbbaa",
"#aabbbrbbbbbbbaa#aarrrrrrrbbbbaa#aabbbbbbbbbbbar#aabbbbbbbbbbbaa",
"#aabbbbbbbbbbbaa#arrrrrrrrrbbbaa#aabbbbbbbbbbbar#aabbbbbbbbbbbaa",
"#aabbbbbbbbbbbaa#aarrrrrrrbbbbaa#aabbbbbbbbbbbar#aabbbbbbbbbbbaa",
"###################rrrrrrr#####################r################",
"bbbbbbbbbbaa#aabbbbbrrrrrbaa#aabbbbbbbbbbbaa#aarbbbbbbbbbbaa#aab",
"bbbbbbbbbbaa#aabbbbbbbrrbbaa#aabbbbbbbbbbbaa#aarbbbbbbbbbbaa#aab",
"bbbbbbbbbbaa#aabbbbbbbrbbbaa#aabbbbbbbbbbbaa#aabbbbbbbbbbbaa#aab",
"bbbbbbbbbbaa#aabbbbbbbrbbbaa#aabbbbbbbbbbbaa#aabbbbbbbbbbbaa#aab",
"bbbbbbbbbbaa#aabbbbbbbbbbbaa#aabbbbbbbbbbbaa#aabbbbbbbbbbbaa#aab",
"bbbbbbbbbbaa#aabbbbbbbbbbbaa#aabbbbbbbbbbbaa#aabbbbbbbbbbbaa#aab",
"bbbbbbbbbbaa#aabbbbbbbbbbbaa#aabbbbbbbbbbbaa#aabbbbbbbbbbbaa#aab"
};
