/* XPM */
static char *blood_e_xpm[] = {
"64 64 5 1",
". c #0a0000",
"# c #000000",
"a c #1f0000",
"b c #3a0a08",
"r c #8a0a10",
"################################################################",
"#aabbbbbbbbbbbaa#aabbbbbbbbbbbaa#aabbbbbbbbbbbaa#aabbbbbbbbbbbaa",
"#aabbbbbbbbbbbaa#aabbbbbbbbbbbaa#aabbbbbbbbbbbaa#aabbbbbbbbbbbaa",
"#aabbbbbbbbbbbaa#aabbbbbbbbbbbaa#aabbbbbbbbbbbaa#aabbbbbbbbbbbaa",
"#aabbbbbbbbbbbaa#aabbbbbbbbbbbaa#aabbbbbbbbbbbaa#aabbbbbbbbbbbaa",
"#aabbbbbbbbbbbaa#aabbbbbbbbbbbaa#aabbbbbbbbbbbaa#aabbbbbbbbbbbaa",
"#aabbbbbbbbbbbaa#aabbbbbbbbbbbaa#aabbbbbbbbbbbaa#aabbbbbbbbbbbaa",
"#aabbbbbbbbbbbaa#aabbbbbbbbbbbaa#aabbbbbbbbbbbaa#aabbbbbbbbbbbaa",
"################################################################",
"bbbbbbbbbbaa#aabbbbbbbbbbbaa#aabbbbbbbbbbbaa#aabbbbbbbbbbbaa#aab",
"bbbbbbbbbbaa#aabbbbbbbbbbbaa#aabbbbbbbbbbbaa#aabbbbbbbbbbbaa#aab",
"bbbbbbbbbbaa#aabbbbbbbbbbbaa#aabbbbbbbbbbbaa#aabbbbbbbbbbbaa#aab",
"bbbbbbbbbbaa#aabbbbbbbbbbbaa#aabbbbbbbbbbbaa#aabbbbbbbbbbbaa#aab",
"bbbbbbrrrbaa#aabbbbbbbbbbbaa#aabbbbbbbbbbbaa#aabbbbbbbbbbbaa#aab",
"bbbbbrrrrraa#aabbbbbbbbbbbaa#aabbbbbbbbbbbaa#aabbbbbbbbbbbaa#aab",
"bbbbrrrrrrra#aabbbbbbbbbbbaa#aabbbbbbbbbbbaa#arbrbbbbbbbbbaa#aab",
"###rrrrrrrr##################################rrrrr##############",
"#aarrrrrrrrbbbaa#aabbbbbbbbbbbaa#aabbbbbbbbbrrrrrrrbbbbbbbbbbbaa",
"#aabrrrrrrrbbbaa#aabbbbbbbbbbbaa#aabbbbbbbbrrrrrrrrbbbbbbbbbbbaa",
"#aabrrrrrrrbbbaa#aabbbbbbbbbbbaa#aabbbbbbbbrrrrrrrrbbbbbbbbbbbaa",
"#aabbrrrrrbbbbaa#aabbbbbbbbbbbaa#aabbbbbbbbbrrrrrrrrbbbbbbbbbbaa",
"#aabbbbrbbbbbbaa#aabbbbbbbbbbbaa#aabbbbbbbbbrrrrrrrbbbbbbbbbbbaa",
"#aabbbbrbbbbbbaa#aabbbbbbbbbbbaa#aabbbbbbbbbbrrrrrabbbbbbbbbbbaa",
"#aabbbbbbbbbbbaa#aabbbbbbbbbbbaa#aabbbbbbbbbbbarraabbbbbbbbbbbaa",
"###############################################r################",
"bbbbbbbbbbaa#aabbbbbbbbbbbaa#aabbbbbbbbbbbaa#aarbbbbbbbbbbaa#aab",
"bbbbbbbbbbaa#aabbbbbbbbbbbaa#aabbbbbbbbbbbaa#aarbbbbbbbbbbaa#aab",
"bbbbbbbbbbar#rabbbbbbbbbbbaa#aabbbbbbbbbbbaa#aarbbbbbbbbbbaa#aab",
"bbbbbbbbbbarrrabbbbbbbbbbbaa#aabbbbbbbbbbbaa#aarbbbbbbbbbbaa#aab",
"bbbbbbbbbbrrrrabbbbbbbbbbbaa#aabbbbbbbbbbbaa#aabbbbbbbbbbbaa#aab",
"bbbbbbbbbbrrrrrbbbbbbbbbbbaa#aabbbbbbbbbbbaa#aabbbbbbbbbbbaa#aab",
"bbbbbbbbbbaarrabbbbbbbbbbbaa#aabbbbbbbbbbbaa#aabbbbbbbbbbbaa#aab",
"############r###################################################",
"#aabbbbbbbbbrbaa#aabbbbbbbbbbbaa#aabbbbbbbbbbbaa#aabbbbbbbbbbbaa",
"#aabbbbbbbbbrbaa#aabbbbbbbbbbbaa#aabbbbbbbbbbbaa#aabbbbbbbbbbbaa",
"#aabbbbbbbbbrbaa#rrbbbbbbbbbbbaa#aabbbbbbbbbbbaa#aabbbbbbbbbbbaa",
"#aabbbbbbbbbrbarrrrrbbbbbbbbbbaa#aabbbbbbbbbbbaa#aabbbbbbbbbbbaa",
"#aabbbbbbbbbrrrrrrrrrrbbbbbbbbaa#aabbbbbbbbbbbaa#aabbbbbbbbbbbaa",
"#aabbbbbbbbbrrrrrrrrrrbbbbbbbbaa#aabbbbbbbbbbbaa#aabbbbbbbbbbbaa",
"#aabbbbbbbbbbrrrrrrrrrbbbbbbbbaa#aabbbbbrrbbbbaa#aabbbbbbbbbbbaa",
"############rrrrrrrrrrr###############rrrrr#####################",
"bbbbbbbbbbarrrrrrrrrrrbbbbaa#aabbbbbbrrrrrrr#aabbbbbbbbbbbaa#aab",
"bbbbbbbbbrrrrrrrrrrrrrbbbbaa#aabbbbbbbrrrrrrraabbbbbbbbbbbaa#aab",
"bbbbbbbbbrrrrrrrrrrrrbbbbbaa#aabbbbbbbrrrrrrrrabbbbbbbbbbbaa#aab",
"bbbbbbbbrrrrrrrrrrrrrbbbbbaa#aabbbbbbbrrrrrrrrabbbbbbbbbbbaa#aab",
"bbbbbbbbbrrrrrrbrrbbbbbbbbaa#aabbbbbbbrrrrrrrrrbbbbbbbbbbbaa#aab",
"bbbbbbbbbrrrrrabbrbbbbbbbbaa#aabbbbbbbbrrrrrrrabbbbbbbbbbbaa#aab",
"bbbbbbbbbbrrraabbrbbbbbbbbaa#aabbbbbbbbrrrrrrrabbbbbbbbbbbaa#aab",
"###########r#####r######################rrrrr###################",
"#aabbbbbbbbrbbaa#rabbbbbbbbbbbaa#aabbbbbrrrbbbaa#aabbbbbbbbbbbaa",
"#aabbbbbbbbrbbaa#rabbbbbbbbbbrra#aabbbbbrbrbbbaa#aabbbbbbbbbbbaa",
"#aabbbbbbbbrbbaa#rabbbbbbbbrrrrrraabbbbbrbbbbbaa#aabbbbbbbbbbbaa",
"#aabbbbbbbbrbbaa#aabbbbbbbrrrrrrrrabbbbbrbbbbbaa#aabbbbbbbbbbbaa",
"#aabbbbbbbbbbbaa#aabbbbbbrrrrrrrrrabbbbbbbbbbbaa#aabbbbbbbbbbbaa",
"#aabbbbbbbbbbbaa#aabbbbbbrrrrrrrrrabbbbbbbbbbbaa#aabbbbbbbbbbbaa",
"#aabbbbbbbbbbbaa#aabbbbbrrrrrrrrrrrbbbbbbbbbbbaa#aabbbbbbbbbbbaa",
"########################rrrrrrrrrrr#############################",
"bbbbbbbbbbaa#aabbbbbbbbbbrrrrrrrrrbbbbbbbbaa#aabbbbbbbbbbbaa#aab",
"bbbbbbbbbbaa#aabbbbbbbbbbbrrrrrrrrbbbbbbbbaa#aabbbbbbbbbbbaa#aab",
"bbbbbbbbbbaa#aabbbbbbbbbbbrrrrrrbbbbbbbbbbaa#aabbbbbbbbbbbaa#aab",
"bbbbbbbbbbaa#aabbbbbbbbbbbaa#rrbbbbbbbbbbbaa#aabbbbbbbbbbbaa#aab",
"bbbbbbbbbbaa#aabbbbbbbbbbbaa#rabbbbbbbbbbbaa#aabbbbbbbbbbbaa#aab",
"bbbbbbbbbbaa#aabbbbbbbbbbbaa#rabbbbbbbbbbbaa#aabbbbbbbbbbbaa#aab",
"bbbbbbbbbbaa#aabbbbbbbbbbbaa#rabbbbbbbbbbbaa#aabbbbbbbbbbbaa#aab"
};
