/* XPM */
static char *heal_xpm[] = {
"64 64 5 1",
". c None",
"k c #1a1a1a",
"w c #f8f8f8",
"r c #DD2222",
"d c #881111",
"................................................................",
"................................................................",
"................................................................",
"................................................................",
"................................................................",
"................................................................",
"................................................................",
"................................................................",
"................................................................",
"................................................................",
"................................................................",
"................................................................",
"................................................................",
"................................................................",
"................................................................",
".................kkkkkkkkkkkkkkkkkkkkkkkkkkkkkk.................",
"................wwwwwwwwwwwwwwwwwwwwwwwwwwwwwwww................",
"...............kwwwwwwwwwwwwwwwwwwwwwwwwwwwwwwwwk...............",
"...............kwwwwwwwwwwwwwwwwwwwwwwwwwwwwwwwwk...............",
"...............kwwwwwwwwwwwwwwwwwwwwwwwwwwwwwwwwk...............",
"...............kwwwwwwwwwwwwwwwwwwwwwwwwwwwwwwwwk...............",
"...............kwwwwwwwwwwwwddddddddwwwwwwwwwwwwk...............",
"...............kwwwwwwwwwwwwrrrrrrrrwwwwwwwwwwwwk...............",
"...............kwwwwwwwwwwwwrrrrrrrrwwwwwwwwwwwwk...............",
"...............kwwwwwwwwwwwwrrrrrrrrwwwwwwwwwwwwk...............",
"...............kwwwwwwwwwwwwrrrrrrrrwwwwwwwwwwwwk...............",
"...............kwwwwwwwwwwwwrrrrrrrrwwwwwwwwwwwwk...............",
"...............kwwwwwwddddddrrrrrrrrddddddwwwwwwk...............",
"...............kwwwwwdrrrrrrrrrrrrrrrrrrrrdwwwwwk...............",
"...............kwwwwwdrrrrrrrrrrrrrrrrrrrrdwwwwwk...............",
"...............kwwwwwdrrrrrrrrrrrrrrrrrrrrdwwwwwk...............",
"...............kwwwwwdrrrrrrrrrrrrrrrrrrrrdwwwwwk...............",
"...............kwwwwwdrrrrrrrrrrrrrrrrrrrrdwwwwwk...............",
"...............kwwwwwdrrrrrrrrrrrrrrrrrrrrdwwwwwk...............",
"...............kwwwwwdrrrrrrrrrrrrrrrrrrrrdwwwwwk...............",
"...............kwwwwwdrrrrrrrrrrrrrrrrrrrrdwwwwwk...............",
"...............kwwwwwwddddddrrrrrrrrddddddwwwwwwk...............",
"...............kwwwwwwwwwwwwrrrrrrrrwwwwwwwwwwwwk...............",
"...............kwwwwwwwwwwwwrrrrrrrrwwwwwwwwwwwwk...............",
"...............kwwwwwwwwwwwwrrrrrrrrwwwwwwwwwwwwk...............",
"...............kwwwwwwwwwwwwrrrrrrrrwwwwwwwwwwwwk...............",
"...............kwwwwwwwwwwwwrrrrrrrrwwwwwwwwwwwwk...............",
"...............kwwwwwwwwwwwwddddddddwwwwwwwwwwwwk...............",
"...............kwwwwwwwwwwwwwwwwwwwwwwwwwwwwwwwwk...............",
"...............kwwwwwwwwwwwwwwwwwwwwwwwwwwwwwwwwk...............",
"...............kwwwwwwwwwwwwwwwwwwwwwwwwwwwwwwwwk...............",
"...............kwwwwwwwwwwwwwwwwwwwwwwwwwwwwwwwwk...............",
"................wwwwwwwwwwwwwwwwwwwwwwwwwwwwwwww................",
".................kkkkkkkkkkkkkkkkkkkkkkkkkkkkkk.................",
"................................................................",
"................................................................",
"................................................................",
"................................................................",
"................................................................",
"................................................................",
"................................................................",
"................................................................",
"................................................................",
"................................................................",
"................................................................",
"................................................................",
"................................................................",
"................................................................",
"................................................................"
};
