/* XPM */
static char *bone_w_xpm[] = {
"64 64 4 1",
". c #b8b09a",
"# c #1a0e08",
"a c #7a6a52",
"b c #dcd4ba",
"................................................................",
"................................................................",
"bbbbb............aaaaaaaaa............bbbbbbbbb............aaaaa",
"bbbbbbb........aaaaaaaaaaaaa........bbbbbbbbbbbbb........aaaaaaa",
"bbbbbbbb...#..aaaaaaaaaaaaaaa......bbbbbbbbbbbbbbb......aaaaaaaa",
"bbbbbbbbb.###aaaaaaaaaaaaaaaa.....bbbbbbbbbbbbbbbb.....aaaaaaaaa",
"bbbbbbbbb#####aaaaaaaaaaaaaaaa....bbbbbbbbbbbbbbbbb....aaaaaaaaa",
"bbbbbbbbb.###aaaaaaaaaaaaaaaaa....bbbbbbbbbbbbbbbbb....aaaaaaaaa",
"bbbbbbbbb..#.aaaaaaaaaaaaaaaaa....bbbbbbbbbbbbbbbbb....aaaaaaaaa",
"bbbbbbbbb....aaaaaaaaaaaaaaaaa....bbbbbbbbbbbbbbbbb....aaaaaaaaa",
"bbbbbbbbb....aaaaaaaaaaaaaaaaa....bbb#b##bbbbbbbbbb....aaaaaaaaa",
"bbbbbbbb......aaaaaaaaaaaaa#a.....bbbb##bbbbbbbbbb.....aaaaaaaaa",
"bbbbbbbb......aaaaaaaaaaaaaa##.....bbbbbbbbbbbbbbb......aaaaaaaa",
"bbbbbbb........aaaaa#aaaaaa###......bbbbbbbbbbbbb........aaaaaaa",
"bbbb..............a###aa##....#........bbbbbb...............aaaa",
"..................#####.......#.................................",
"...................###...#......................................",
"....................#...........................................",
"aaaaaa..........bbbbbbbbb#b..........aaaaaaaaaaa..........bbbbbb",
"aaaaaaaa......bbbbbbbbbbbbbb.......aaaaaaaaaaaaaa.......bbbbbbbb",
"aaaaaaaa......bbbbbbbbbb##bbb......aaaaaaaaaaaaaaa......bbbbbbbb",
"aaaaaaaaa....bbbbbbbbbb#bbbbbb....aaaaaaaaaaaaaaaaa....bbbbbbbbb",
"aaaaaaaaa....bbbbbbbbbbbbbbbbb....aaaaaaaaaaaaaaaaa....bbbbbbbbb",
"aaaaaaaaa....bbbbbbbbbbbbbbbbb....aaaaaaaaaaaaaaaaa....bbbbbbbbb",
"aaaaaaaaa....bbbbbbbbbbbbbbbbb....aaaaaaaaaaaaaaaaa....bbbbbbbbb",
"aaaaaaaaa....bbbbbbbbbbbbbbbbb....aaaaaaaaaaaaaaaaa....bbbbbbbbb",
"aaaaaaa#a....bbbbbbbbbbbbbbbbb....aaaaaaaaaaaaaaaaa....bbbbbbbbb",
"aaaaaaaa......bbbbbbbbbbbbbbb......aaaaaaaaaaaaaaa......bbbbbbbb",
"aaaaaaaa#.....bbbbbbbbbbbbbbb......aaaaaaaaaaaaaaa......bbbbbbbb",
"aaaaaa.#........bbbbbbbbbbb..........aaaaaaaaaaa..........bbbbbb",
"................................................................",
".......#........................................................",
"................................................................",
"bb....##............aaa..................bbb..................aa",
"bbbbbbb#.......aaaaaaaaaaaaa........bbbbbbbbbbbbb........aaaaaaa",
"bbbbbbb#......aaaaaaaaaaaaaaa......bbbbbbbbbbbbbbb......aaaaaaaa",
"bbbbbbbb......aaaaaaaaaaaaaaa......bbbbbbbbbbbbbbb.....aaaaaaaaa",
"bbbbbbbbb....aaaaaaaaaaaaa#aaa....bbbbbbbbbbbbbbbbb....aaaaaaaaa",
"bbbbbbbbb....aaaaaaaaaaa#####a....bbbbbbbbbbbbbbbbb....aaaaaaaaa",
"bbbbbbbbb....aaaaaaaaaaa#####a....bbbbbbbbbbbbbbbbb....aaaaaaaaa",
"bbbbbbbbb....aaaaaaaaaa#######....bbbbbbbbbbbbbbbbb....aaaaaaaaa",
"bbbbbbbbb....aaaaaaaaaaa#####a....bbbbbbbbbbbbbbbbb....aaaaaaaaa",
"bbbbbbbbb....aaaaaaaaaaa#####a....bbbbbbbbbbbbbbbb.....aaaaaaaaa",
"bbbbbbbb......aaaaaaaaaaaa#aa......bbbbbbbbbbbbbbb......aaaaaaaa",
"bbbbbbb........aaaaaaaaaaaaa........bbbbbbbbbbbbb.......aaaaaaaa",
"bbbbbb..........aaaaaaaaaa...........bbbbbbbbbb...........aaaaaa",
"................................................................",
".............#..................................................",
"............#.#.................................................",
"aaaaa.......##...bbbbbbbbb............aaaaaaaa.............bbbbb",
"aaaaaaa.....#..bbbbbbbbbbbbb........aaaaaaaaaaaaa........bbbbbbb",
"aaaaaaaa......bbbbbbbbbbbbbbb......aaaaaaaaaaaaaaa......bbbbbbbb",
"aaaaaaaa.....bbbbbbbbbbbbbbbb.....aaaaaaaaaaaaaaaa.....bbbbbbbbb",
"aaaaaaaaa....bbbbbbbbbbbbbbbbb....aaaaaaaaaaaaaaaaa....bbbbbbbbb",
"aaaaaaaaa....bbbbbbbbbbbbbbbbb....aaaaaaaaaaaaaaaaa....bbbbbbbbb",
"aaaaaaaaa....bbbbbbbbbbbbbbbbb....aaaaaaaaaaaaaaaaa....bbbbbbbbb",
"aaaaaaaaa....bbbbbbbbbbbbbbbbb....aaaaaaaaaaaaaaaaa....bbbbbbbbb",
"aaaaaaaaa....bbbbbbbbbbbbbbbbb....aaaaaaaaaaaaaaaaa....bbbbbbbbb",
"aaaaaaaa.....bbbbbbbbbbbbbbbb.....aaaaaaaaaaaaaaaa.....bbbbbbbbb",
"aaaaaaaa......bbbbbbbbbbbbbbb......aaaaaaaaaaaaaaa......bbbbbbbb",
"aaaaaaa........bbbbbbbbbbbbb........aaaaaaaaaaaaa........bbbbbbb",
"aaaa..............bbbbbbb..............aaaaaaa.............bbbbb",
"................................................................",
"................................................................"
};
