/* XPM */
static char *bone_s_xpm[] = {
"64 64 4 1",
". c #b8b09a",
"# c #1a0e08",
"a c #7a6a52",
"b c #dcd4ba",
"................................................................",
"................................................................",
"bbbbb............aaaaaaaaa............bbbbbbbbb............aaaaa",
"bbbbbbb........aaaaaaaaaaaaa........bbbbbbbbbbbbb........aaaaaaa",
"bbbbbbbb......aaaaaaaaaaaaaaa......bbbbbbbbbbbbbbb......aaaaaaaa",
"bbbbbbbbb....aaaaaaaaaaaaaaaa.....bbbbbbbbbbbbbbbb.....aaaaaaaaa",
"bbbbbbbbb....aaaaaaaaaaaaaaaaa....bbbbbbbbbbbbbbbbb....aaaaaaaaa",
"bbbbbbbbb....aaaaaaaaaaaaaaaaa....bbbbbbbbbbbbbbbbb....aaaaaaaaa",
"bbbbbbbbb....aaaaaaaaaaaaaaaaa....bbbbbbbbbbbbbbbbb....aaaaaaaaa",
"bbbbbbbbb....aaaaaaaaaaaaaaaaa....bbbbbbbbbbbbbbbbb....aaaaaaaaa",
"bbbbbbbbb....aaaaaaaaaaaaaaaaa....bbbbbbbbbbbbbbbbb....aaaaaaaaa",
"bbbbbbbb......aaaaaaaaaaaaaaa.....bbbbbbbbbbbbbbbb.....aaaaaaaaa",
"bbbbbbbb......aaaaaaaaaaaaaaa......bbbbbbbbbbbbbbb......aaaaaaaa",
"bbbbbbb........aaaaaaaaaaaaa........bbbbbbbbbbbbb........aaaaaaa",
"bbbb..............aaaaaaa..............bbbbbb...............aaaa",
"................................................................",
"................................................................",
"................................................................",
"aaaaaa..........bbbbbbbbbbb..........aaaaaaaaaaa..........bbbbbb",
"aaaaaaaa......bbbbbbbbbbbbbb.......aaaaaaaaaaaaaa.......bbbbbbbb",
"aaaaaaaa......bbbbbbbbbbbbbbb......aaaaaaaa#aaaaaa......bbbbbbbb",
"aaaaaaaaa...##bbbbbbbbbbbbbbbb....aaaaaaaa###aaaaaa....bbbbbbbbb",
"aaaaaaaaa...###bbbbbbbbbbbbbbb....aaaaaaa#####aaaaa....bbbbbbbbb",
"aaaaaaaaa...##bbbbbbbbbb#bbbbb....aaaaaaaa###aaaaaa....bbbbbbbbb",
"aaaaaaaaa....#bbbbbbbbbbb#bbbb....aaaaaaaaa#aaaaaaa....bbbbbbbbb",
"aaaaaaaaa....bbbbbbbbbbbb#bbbb....aaaaaaaaaaaaaaaaa....bbbbbbbbb",
"aaaaaaaaa....bbbbbbbbbbb##bbbb....aaaaaaaaaaaaaaaaa....bbbbbbbbb",
"aaaaaaaa......bbbbbbbbbbbbbbb......aaaaaaaaaaaaaaa......bbbbbbbb",
"aaaaaaaa......bbbbbbbbbb#bbbb......aaaaaaaaaaaaaaa......bbbbbbbb",
"aaaaaa..........bbbbbbb#bbb..........aaaaaaaaaaa..........bbbbbb",
"................................................................",
".................##.....#.......................................",
"...................##...........................................",
"bb.................#aaa..................bbb..................aa",
"bbbbbb#........aaaaaaaaaaaaa........bbbbbbbbbbbbb........aa#aaaa",
"bbbbb###......aaaaaa#aaaaaaaa......bbbbbbbbbbbbbbb......aa###aaa",
"bbbb#####.....aaaaa#aaaaaaaaa......bbbbbbbbbbbbbbb.....aa#####aa",
"bbbbb###b....aaaaaaaaaaaaaaaaa....bbbbbbbbbbbbbbbbb....aaa###aaa",
"bbbbbb#bb....aaaaaaaaaaaaaaaaa....bbbbbbbbbbbbbbbbb....aaaa#aaaa",
"bbbbbbbbb....aaaaaaaaaa#aaaaaa....bbbbbbbbbbbbbbbbb....aaaaaaaaa",
"bbbbbbbbb....aaaaaaaaaaaaaaaaa....bbbbbbbbbbbbbbbbb....aaaaaaaaa",
"bbbbbbbbb....aaaaaaaaaa#aaaaaa....bbbbbbbbbbbbbbbbb....aaaaaaaaa",
"bbbbbbbbb....aaaaaaaaaaaaaaaaa....bbbbbbbbbbbbbbbb.....aaaaaaaaa",
"bbbbbbbb......aaaaaaaa#aaaaaa......bbbbbbbbbbbbbbb......aaaaaaaa",
"bbbbbbb........aaaaaaaaaaaaa........bbbbbbbbbbbbb.......aaaaaaaa",
"bbbbbb..........aaaaaaa##a...........bbbbbbbbbb...........aaaaaa",
".......................#........................................",
"......................#.........................................",
"...................###..........................................",
"aaaaa............b#bbbbbbb............aaaaaaaa.............bbbbb",
"aaaaaaa........bbbbbbbbbbbbb........aaaaaaaaaaaaa........bbbbbbb",
"aaaaaaaa......bbb##bbbbbbbbbb......aaaaaaaaaaaaaaa......bbbbbbbb",
"aaaaaaaa.....bbb#b#bbbbbbbbbb.....aaaaaaaaaaaaaaaa.....bbbbbbbbb",
"aaaaaaaaa....bbbb#bbbbbbbbbbbb....aaaaaaaaaaaaaaaaa....bbbbbbbbb",
"aaaaaaaaa....bbbbbbbbbbbbbbbbb....aaaaaaaaaaaaaaaaa....bbbbbbbbb",
"aaaaaaaaa....bbbbbbbbbbbbbbbbb....aaaaaaaaaaaaaaaaa....bbbbbbbbb",
"aaaaaaaaa....bbbbbbbbbbbbbbbbb....aaaaaaaaaaaaaaaaa....bbbbbbbbb",
"aaaaaaaaa....bbbbbbbbbbbbbbbbb....aaaaaaaaaaaaaaaaa....bbbbbbbbb",
"aaaaaaaa.....bbbbb#bbbbbbbbbb.....aaaaaaaaaaaaaaaa.....bbbbbbbbb",
"aaaaaaaa......bbbbbbbbbbbbbbb......aaaaaaaaaaaaaaa......bbbbbbbb",
"aaaaaaa........bb#bbbbbbbbbb........aaaaaaaaaaaaa........bbbbbbb",
"aaaa..............#bbbbbb..............aaaaaaa.............bbbbb",
"..................#.............................................",
"...................###.........................................."
};
