/* XPM */
static char *bone_n_xpm[] = {
"64 64 4 1",
". c #b8b09a",
"# c #1a0e08",
"a c #7a6a52",
"b c #dcd4ba",
"................................................................",
"................................................................",
"bbbbb............aaaaaaaaa............bbbbbbbbb........#...aaaaa",
"bbbbbbb........aaaaaaaaaaaaa........bbbbbbbbbbbbb....#####aaaaaa",
"bbbbbbbb......aaaaaaaaaaaaaaa......bbbbbbbbbbbbbbb...#####aaaaaa",
"bbbbbbbbb....aaaaaaaaaaaaaaaa.....bbbbbbbbbbbbbbbb..#######aaaaa",
"bbbbbbbbb....aaaaaaaaaaaaaaaaa....#bbbbbbbbbbbbbbbb..#####aaaaaa",
"bbbbbbbbb....aaaaaaaaaaaaaaaaa..#####bbbbbbbbbbbbbb#######aaaaaa",
"bbbbbbbbb....aaaaaaaaaaaaaaaaa..#####bbbbbbbbbbbbb#.##.#aaaaaaaa",
"bbbbbbbbb....aaaaaaaaaaaaaaaaa.#######bbbbbbbbbbbbb.#..aaaaaaaaa",
"bbbbbbbbb....aaaaaaaaaaaaaaaaa..#####bbbbbbbbbbbbbb.##.aaaaaaaaa",
"bbbbbbbb......aaaaaaaaaaaaaaa...#####bbbbbbbbbbbbb....#aaaaaaaaa",
"bbbbbbbb......aaaaaaaaaaaaaaa.....#bbbbbbbbbbbbbbb......aaaaaaaa",
"bbbbbbb........aaaaaaaaaaaaa........bbbbbbbbbbbbb....#...aaaaaaa",
"bbbb..............aaaaaaa..............bbbbbb........#......aaaa",
"................................................................",
".................................................##.............",
".................................................###............",
"aaaaaa..........bbbbbbbbbbb..........aaaaaaaaaaa.##.......bbbbbb",
"aaaaaaaa......bbbbbbbbbbbbbb.......aaaaaaaaaaaaaa##.....bbbbbbbb",
"aaaaaaaa......bbbbbbbbbbbbbbb......aaaaaaaaaaaaaaa......bbbbbbbb",
"aaaaaaaaa....bbbbbbbbbbbbbbbbb....aaaaaaaaaaaaaaaaa....bbbbbbbbb",
"aaaaaaaaa....bbbbbbbbbbbbbbbbb....aaaaaaaaaaaaaaaaa....bbbbbbbbb",
"aaaaaaaaa....bbbbbbbbbbbbbbbbb....aaaaaaaaaaaaaaaaa....bbbbbbbbb",
"aaaaaaaaa....bbbbbbbbbbbbbbbbb....aaaaaaaaaaaaaaaaa....bbbbbbbbb",
"aaaaaaaaa....bbbbbbbbbbbbbbbbb....aaaaaaaaaaaaaaaaa....bbbbbbbbb",
"aaaaaaaaa....bbbbbbbbbbbbbbbbb....aaaaaaaaaaaaaaaaa....bbbbbbbbb",
"aaaaaaaa......bbbbbbbbbbbbbbb......aaaaaaaaaaaaaaa......bbbbbbbb",
"aaaaaaaa......bbbbbbbbbbbbbbb......aaaaaaaaaaaaaaa......bbbbbbbb",
"aaaaaa..........bbbbbbbbbbb..........aaaaaaaaaaa..........bbbbbb",
"................................................................",
"................................................................",
"................................................................",
"bb..................aaa..................bbb..................aa",
"bbbbbbb........aaaaaaaaaaaaa........bbbbbbbbbbbbb........aaaaaaa",
"bbbbbbbb......aaaaaaaaaaaaaaa......bbbbbbbbbbbbbbb#.....aaaaaaaa",
"bbbbbbbb......aaaaaaaaaaaaaaa......bbbbbbbbbbbbbb###...aaaaaaaaa",
"bbbbbbbbb....aaaaaaaaaaaaaaaaa....bbbbbbbbbbbbbb#####..aaaaaaaaa",
"bbbbbbbbb....aaaaaaaaaaaaaaaaa....bbbbbbbbbbbbbbb###...aaaaaaaaa",
"bbbbbbbbb....aaaaaaaaaaaaaaaa#....bbbbbbbbbbbbbbbb#....aaaaaaaaa",
"bbbbbbbbb....aaaaaaaaaaaaaaa#a#...bbbbbbbbbbbbbbbbb....aaaaaaaaa",
"bbbbbbbbb....aaaaaaaaaaaaaaaa###..bbbbbbbbbbbbbbbbb....aaaaaaaaa",
"bbbbbbbbb....aaaaaaaaaaaaaaa##....bbbbbbbbbbbbbbbb.....aaaaaaaaa",
"bbbbbbbb......aaaaaaaaaaaaa###.....bbbbbbbbbbbbbbb......aaaaaaaa",
"bbbbbbb........aaaaaaaaaaaaa#.......bbbbbbbbbbbbb.......aaaaaaaa",
"bbbbbb..........aaaaaaaaaa...........bbbbbbbbbb...........aaaaaa",
"................................................................",
"................................................................",
"................................................................",
"aaaaa............bbbbbbbbb............aaaaaaaa.............bbbbb",
"aaaaaaa........bbbbbbbbbbbbb........aaaaaaaaaaaaa........bbbbbbb",
"aaaaaaaa......bbbbbbbbbbbbbbb......aaaaaaaaaaaaaaa......bbbbbbbb",
"aaaaaaaa.....bbbbbbbbbbbbbbbb.....aaaaaaaaaaaaaaaa.....bbbbbbbbb",
"aaaaaaaaa....bbbbbbbb#bbbbbbbb....aaaaaaaaaaaaaaaaa....bbbbbbbbb",
"aaaaaaaaa....bbbbbbbbb#bbbbbbb....aaaaaaaaaaaaaaaaa....bbbbbbbbb",
"aaaaaaaaa....bbbbbbb#bbbbbbbbb....aaaaaaaaaaaaaaaaa....bbbbbbbbb",
"aaaaaaaaa....bbbbbb#b#bbbbbbbb....aaaaaaaaaaaaaaaaa....bbbbbbbbb",
"aaaaaaaaa....bbbbb##bbbbbbbbbb....aaaaaaaaaaaaaaaaa....bbbbbbbbb",
"aaaa#aaa.....bbbbbbbbbbbbbbbb.....aaaaaaaaaaaaaaaa.....bbbbbbbbb",
"aaa#aaaa......bbb#bbbbbbbbbbb......aaaaaaaaaaaaaaa......bbbbbbbb",
"aaaa##a.......##bbbbbbbbbbbb........aaaaaaaaaaaaa........bbbbbbb",
"aaaa#..........###bbbbbbb..............aaaaaaa.............bbbbb",
"................................................................",
"....#..........................................................."
};
