/* XPM */
static char *exit_xpm[] = {
"64 96 7 1",
". c None",
"b c #1a3a30",
"1 c #0a2a32",
"2 c #0e5a6a",
"3 c #18a0c0",
"4 c #66e0f4",
"5 c #d8f8ff",
"................................................................",
"................................................................",
"................................................................",
"................................................................",
"................................................................",
"................................................................",
"................................................................",
"................................................................",
"................................................................",
"................................................................",
"................................................................",
"................................................................",
"................................................................",
"..............................11111.............................",
"............................111111111...........................",
"..........................1111111111111.........................",
".........................111222222222111........................",
"........................11122222222222111.......................",
".......................1122222222222222211......................",
"......................112222233333332222211.....................",
"......................112223335353533322211.....................",
".....................11222333333333333322211....................",
"....................1122233333333333333322211...................",
"....................1222333333333333333332221...................",
"...................112233333334444433333332211..................",
"...................122233333445454544333332221..................",
"..................11223333344444444444333332211.................",
"..................12233333444444444444433333221.................",
"..................12233334444444444444443333221.................",
".................1123333444444444444444443333211................",
".................1223333444444545454444443333221................",
".................1223334444444555554444444333221................",
"................122333344444555555555444443333221...............",
"................122333444445555555555544444333221...............",
"................122333444445555555555544444333221...............",
"...............11233344444555555555555544444333211..............",
"...............12233344445555555555555554444333221..............",
"...............12233344445555555555555554444333221..............",
"...............12233444455555555555555555444433221..............",
"...............12333444455555555555555555444433321..............",
"..............1123334444555555555555555554444333211.............",
"..............1223334445555555555555555555444333221.............",
"..............1223344445555555555555555555444433221.............",
"..............1223344445555555555555555555444433221.............",
"..............1233344445555555555555555555444433321.............",
"..............1233344455555555555555555555544433321.............",
"..............1233344455555555555555555555544433321.............",
"..............1233344455555555555555555555544433321.............",
"..............1233344455555555555555555555544433321.............",
"..............1233344455555555555555555555544433321.............",
".............112333444555555555555555555555444333211............",
".............112334444555555555555555555555444433211............",
".............112334444555555555555555555555444433211............",
".............112334444555555555555555555555444433211............",
".............112334444555555555555555555555444433211............",
".............112334444555555555555555555555444433211............",
".............112333444555555555555555555555444333211............",
"..............1233344455555555555555555555544433321.............",
"..............1233344455555555555555555555544433321.............",
"..............1233344455555555555555555555544433321.............",
"..............1233344455555555555555555555544433321.............",
"..............1233344455555555555555555555544433321.............",
"..............1233344445555555555555555555444433321.............",
"..............1223344445555555555555555555444433221.............",
"..............1223344445555555555555555555444433221.............",
"..............1223334445555555555555555555444333221.............",
"..............1123334444555555555555555554444333211.............",
"...............12333444455555555555555555444433321..............",
"...............12233444455555555555555555444433221..............",
"...............12233344445555555555555554444333221..............",
"...............12233344445555555555555554444333221..............",
"...............11233344444555555555555544444333211..............",
"................122333444445555555555544444333221...............",
"................122333444445555555555544444333221...............",
"................122333344444555555555444443333221...............",
".................1223334444444555554444444333221................",
".................1223333444444444444444443333221................",
".................1123333444444444444444443333211................",
"..................12233334444444444444443333221.................",
"..................12233333444444444444433333221.................",
"..................11223333344454545444333332211.................",
"...................122233333444444444333332221..................",
"...................112233333334444433333332211..................",
"....................1222333333333333333332221...................",
"....................5555555555555555555555555...................",
"....................5555555555555555555555555...................",
"....................bb555555555555555555555bb...................",
"....................bb555555555555555555555bb...................",
"....................bbbbbbbbbbbbbbbbbbbbbbbbb...................",
"....................bbbbbbbbbbbbbbbbbbbbbbbbb...................",
"....................bbbbbbbbbbbbbbbbbbbbbbbbb...................",
"....................bbbbbbbbbbbbbbbbbbbbbbbbb...................",
"....................bbbbbbbbbbbbbbbbbbbbbbbbb...................",
"....................bbbbbbbbbbbbbbbbbbbbbbbbb...................",
"................................................................",
"................................................................"
};
