/* XPM */
static char *north_xpm[] = {
"32 32 5 1",
"  c #050101",
". c #1a0e0e",
"# c #221515",
"@ c #2e1c1c",
"$ c #120909",
"                                ",
"##########.##########.##########",
"#@@@@@@@@#.#@@@@@@@@#.#@@@@@@@@#",
"#@$$$$$$@#.#@$$$$$$@#.#@$$$$$$@#",
"#@$.....$#.#@$.....$#.#@$.....$#",
"#@$.....$#.#@$.....$#.#@$.....$#",
"#@$$$$$$@#.#@$$$$$$@#.#@$$$$$$@#",
"##########.##########.##########",
"                                ",
"#####.##########.##########.####",
"@@@@#.#@@@@@@@@#.#@@@@@@@@#.#@@@",
"$$@@#.#@$$$$$$@#.#@$$$$$$@#.#$$@",
"...@#.#@$.....$#.#@$.....$#.#...",
"...@#.#@$.....$#.#@$.....$#.#...",
"$$@@#.#@$$$$$$@#.#@$$$$$$@#.#$$@",
"#####.##########.##########.####",
"                                ",
"##########.##########.##########",
"#@@@@@@@@#.#@@@@@@@@#.#@@@@@@@@#",
"#@$$$$$$@#.#@$$$$$$@#.#@$$$$$$@#",
"#@$.....$#.#@$.....$#.#@$.....$#",
"#@$.....$#.#@$.....$#.#@$.....$#",
"#@$$$$$$@#.#@$$$$$$@#.#@$$$$$$@#",
"##########.##########.##########",
"                                ",
"#####.##########.##########.####",
"@@@@#.#@@@@@@@@#.#@@@@@@@@#.#@@@",
"$$@@#.#@$$$$$$@#.#@$$$$$$@#.#$$@",
"...@#.#@$.....$#.#@$.....$#.#...",
"...@#.#@$.....$#.#@$.....$#.#...",
"$$@@#.#@$$$$$$@#.#@$$$$$$@#.#$$@",
"#####.##########.##########.####"
};
