/* XPM */
static char *west_xpm[] = {
"32 32 5 1",
"  c #030101",
". c #160c0c",
"# c #1c1212",
"@ c #261616",
"$ c #0e0707",
"                                ",
"##########.##########.##########",
"#@@@@@@@@#.#@@@@@@@@#.#@@@@@@@@#",
"#@$$$$$$@#.#@$$$$$$@#.#@$$$$$$@#",
"#@$.....$#.#@$.....$#.#@$.....$#",
"#@$.....$#.#@$.....$#.#@$.....$#",
"#@$$$$$$@#.#@$$$$$$@#.#@$$$$$$@#",
"##########.##########.##########",
"                                ",
"#####.##########.##########.####",
"@@@@#.#@@@@@@@@#.#@@@@@@@@#.#@@@",
"$$@@#.#@$$$$$$@#.#@$$$$$$@#.#$$@",
"...@#.#@$.....$#.#@$.....$#.#...",
"...@#.#@$.....$#.#@$.....$#.#...",
"$$@@#.#@$$$$$$@#.#@$$$$$$@#.#$$@",
"#####.##########.##########.####",
"                                ",
"##########.##########.##########",
"#@@@@@@@@#.#@@@@@@@@#.#@@@@@@@@#",
"#@$$$$$$@#.#@$$$$$$@#.#@$$$$$$@#",
"#@$.....$#.#@$.....$#.#@$.....$#",
"#@$.....$#.#@$.....$#.#@$.....$#",
"#@$$$$$$@#.#@$$$$$$@#.#@$$$$$$@#",
"##########.##########.##########",
"                                ",
"#####.##########.##########.####",
"@@@@#.#@@@@@@@@#.#@@@@@@@@#.#@@@",
"$$@@#.#@$$$$$$@#.#@$$$$$$@#.#$$@",
"...@#.#@$.....$#.#@$.....$#.#...",
"...@#.#@$.....$#.#@$.....$#.#...",
"$$@@#.#@$$$$$$@#.#@$$$$$$@#.#$$@",
"#####.##########.##########.####"
};
