/* XPM */
static char *ammo_xpm[] = {
"64 64 6 1",
". c None",
"k c #1a1a1a",
"y c #E0B020",
"b c #4a3a20",
"g c #f0c040",
"w c #e8e8d0",
"................................................................",
"................................................................",
"................................................................",
"................................................................",
"................................................................",
"................................................................",
"................................................................",
"................................................................",
"................................................................",
"................................................................",
"................................................................",
"................................................................",
"................................................................",
"................................................................",
"................................................................",
"................................................................",
"................................................................",
"................................................................",
"................................................................",
"................................................................",
"................................................................",
"................................................................",
"................................................................",
"...................kkkkkkkkkkkkkkkkkkkkkkkkkk...................",
"..................yyyyyyyyyyyyyyyyyyyyyyyyyyyy..................",
".................kyyyyyyyyyyyyyyyyyyyyyyyyyyyyk.................",
".................kyyyyyyyyyyyyyyyyyyyyyyyyyyyyk.................",
".................kyyyyyyyyyyyyyyyyyyyyyyyyyyyyk.................",
".................kyyyyggyyggyyggyyyyyyyyyyyyyyk.................",
".................kyyyyggyyggyyggyyyyyyyyyyyyyyk.................",
".................kyyyybbyybbyybbyywwwwwwwwwwyyk.................",
".................kyyyybbyybbyybbyywkkkkkkkkwyyk.................",
".................kyyyybbyybbyybbyywkkkkkkkkwyyk.................",
".................kyyyybbyybbyybbyywwwwwwwwwwyyk.................",
".................kyyyybbyybbyybbyywkkkkkkkkwyyk.................",
".................kyyyybbyybbyybbyywkkkkkkkkwyyk.................",
".................kyyyybbyybbyybbyywwwwwwwwwwyyk.................",
".................kyyyybbyybbyybbyywkkkkkkkkwyyk.................",
".................kyyyybbyybbyybbyywkkkkkkkkwyyk.................",
".................kyyyybbyybbyybbyywwwwwwwwwwyyk.................",
".................kyyyyyyyyyyyyyyyyyyyyyyyyyyyyk.................",
".................kyyyyyyyyyyyyyyyyyyyyyyyyyyyyk.................",
".................kyyyyyyyyyyyyyyyyyyyyyyyyyyyyk.................",
"..................yyyyyyyyyyyyyyyyyyyyyyyyyyyy..................",
"...................kkkkkkkkkkkkkkkkkkkkkkkkkk...................",
"................................................................",
"................................................................",
"................................................................",
"................................................................",
"................................................................",
"................................................................",
"................................................................",
"................................................................",
"................................................................",
"................................................................",
"................................................................",
"................................................................",
"................................................................",
"................................................................",
"................................................................",
"................................................................",
"................................................................",
"................................................................",
"................................................................"
};
