/* XPM */
static char *blood_w_xpm[] = {
"64 64 5 1",
". c #0a0000",
"# c #000000",
"a c #1f0000",
"b c #3a0a08",
"r c #8a0a10",
"################################################################",
"#aabbbbbbbbbbbaa#aabbbbbbbbbbbaa#aabbbbbbbbbbbaa#aabbbbbbbbbbbaa",
"#aabbbbbbbbrrbaa#aabbbbbbbbbbbaa#aabbbbbbbbbbbaa#aabbbbbbbbbbbaa",
"#aabbbbbbrrrrraa#aabbbbbbbbbbbaa#aabbbbbbbbbbbaa#aabbbbbbbbbbbaa",
"#aabbbbbrrrrrraa#aabbbbbbbbbbbaa#aabbbbbbbbbbbaa#aabbbbbbbbbbbaa",
"#aabbbbbrrrrrraa#aabbbbbbbbbbbaa#aabbbbbbbbbbbaa#aabbbbbbbbbbbaa",
"#aabbbbbbrrrrrra#aabbbbbbbbbbbaa#aabbbbbbbbbbbaa#aabbbbbbbbbbbaa",
"#aabbrbbbrrrrraa#aabbbbbbbbbbbaa#aabbbbbbbbbbbaa#aabbbbbbbbbbbaa",
"###rrrrr##rr########################################r###########",
"bbrrrrrrrbar#aabbbbbbbbbbbaa#aabbbbbbbbbbbaa#aabbrrrrrrrbbaa#aab",
"bbrrrrrrrrar#aabbbbbbbbbbbaa#aabbbbbbbbbbbaa#aabbrrrrrrrrbaa#aab",
"brrrrrrrrbar#aabbbbbbbbbbbaa#aabbbbbbbbbbbaa#aabrrrrrrrrrbaa#aab",
"bbrrrrrrrbar#aabbbbbbbbbbbaa#aabbbbbbbbbbbaa#aabrrrrrrrrrbaa#aab",
"bbrrrrrrrbar#aabbbbbbbbbbbaa#aabbbbbbbbbbbaa#aarrrrrrrrrrraa#aab",
"bbbrrrrrbbar#aabbbbbbbbbbbaa#aabbbbbbbbbbbaa#aabrrrrrrrrrbaa#aab",
"bbbbbrbbbbaa#aabbbbbbbbbbbaa#aabbbbbbbbbbbaa#aabrrrrrrrrrbaa#aab",
"#####r#############################rr###########rrrrrrrrr#######",
"#aabbbbbbbbbbbaa#aabbbbbbbbbbbaa#rrrrrbbbbbbbbaa#arrrrrrbbbbbbaa",
"#aabbbbbbbbbbbaa#aabbbbbbbbbbbaarrrrrrbbbbbbbbaa#aabrbbbbbbbbbaa",
"#aabbbbbbbbbbbaa#aabbbbbbbbbbbaa#rrrrrrbbbbbbbaa#aabrbbbbbbbbbaa",
"#aabbbbbbbbbbbaa#aabrbbbbbbbbbaa#rrrrrrbbbbbbbaa#aabrbbbbbbbbbaa",
"#aabbbbbbbbbbbaa#aarrrrrbbbbbbaa#rrrrrbbbbbbbbaa#aabrbbbbbbbbbaa",
"#aabbbbbbbbbbbaa#aarrrrrbbbbbbaa#arrbbbbbbbbbbaa#aabrbbbbbbbbbaa",
"#aabbbbbbbbbbbaa#aarrrrrbbbbbbaa#aarbbbbbbbbbbaa#aabrbbbbbbbbbaa",
"###################rrrrr############################r###########",
"bbbbbbbbbbaa#aabbbbrrrrrbbaa#aabbbbbbbbbbbaa#aabbbbbrbbbbbaa#aab",
"bbbbbbbbbbaa#aabbbbbrrrbbbaa#aabbbbbbbbbbbaa#aabbbbbbbbbbbaa#aab",
"bbbbbbbbbbaa#aabbbbbbrbbbbaa#aabbbbbbbbbbbaa#aabbbbbbbbbbbaa#aab",
"bbbbbbbbbbaa#aabbbbbbrbbbbaa#aabbbbbbbbbbbaa#aabbbbbbbbbbbaa#aab",
"bbbbbbbbbbaa#aabbbbbbrbbbbaa#aabbbbbbbbbbbaarrabbbbbbbbbbbaa#aab",
"bbbbbbbbbbaa#aabbbbbbrbbbbaa#aabbbbbbbbbbbarrrrrbbbbbbbbbbaa#aab",
"bbbbbbbbbbaa#aabbbbbbrbbbbaa#aabbbbbbbbbbbarrrrrbbbbbbbbbbaa#aab",
"##########################################rrrrrrr###############",
"#aabbbbbbbbbbbaa#aabbbbbbbbbbbaa#aabbbbbbbbrrrrr#aabbbbbbbbbbbaa",
"#aabbbbbbbbbbbaa#aabbbbbbbbbbbaa#aabbbbbbbbrrrrr#aabbbbbbbbbbbaa",
"#aabbbbbbbbbbbaa#aabbbbbbbbbbbaa#aabbbbbbbbbrraa#aabbbbbbbbbbbaa",
"#aabbbbbbbbbbbaa#aabbbbbbbbbbbaa#aabbbbbbbbbbraa#aabbbbbbbbbbbaa",
"#aabbbbbbbbbbbaa#aabbbbbbbbbbbaa#aabbbbbbbbbbraa#aabbbbbbbbbbbaa",
"#aabbbbbbbbbbbaa#aabbbbbbbbbbbaa#aabbbbbbbbbbbaa#aabbbbbbrbrbbaa",
"#aabbbbbbbbbbbaa#aabbbbbbbbbbbaa#aabbbbbbbbbbbaa#aabbbbbrrrrrbaa",
"########################################################rrrr####",
"bbbbbbbbbbaa#aabbbbbbbbbbbaa#aabbbbbbbbbbbaa#aabbbbbbbbbbrrr#aab",
"bbbbbbbbbbaa#aabbbbbbbbbbbaa#aabbbbbbbbbbbaa#aabbbbbbbbbbrra#aab",
"bbbbbbbbbbaa#aabbbbbbbbbbbaa#aabbbbbbbbbbbaa#aabbbbbbbbbbbra#aab",
"bbbbbbbbbbaa#aabbbbbbbbbbbaa#aabbbbbbbbbbbaa#aabbbbbbbbbbbra#aab",
"bbbbbbbbbbaa#aabbbbbbbbbbbaa#aabbbbbbbbbbbaa#aabbbbbbbbbbbra#aab",
"bbbbbbbbbbaa#aabbbbbbbbbbbaa#aabbbbbbbbbbbaa#aabbbbbbbbbbbra#aab",
"bbbbbbbbbbaa#aabbbbbbbbbbbaa#aabbbbbbbbbbbaa#aabbbbbbbbbbbra#aab",
"##########################################################r#####",
"#aabbbbbbbbbbbaa#aabbbbbbbbbbbaa#aabbbbbbbbbbbaa#aabbbbbbbrbbbaa",
"#aabbbbbbbbbbbaa#aabbbbbbbbbbbaa#aabbbbbbbbbbbaa#aabbbbbbbbbbbaa",
"#aabbbbbbbbbbbaa#aabbbbbbbbbbbaa#aabbbbbbbbbbbaa#aabbbbbbbbbbbaa",
"#aabbbbbbbbbbbaa#aabbbbbbbbbbbaa#aabbbbbbbbbbbaa#aabbbbbbbbbbbaa",
"#aabbbbbbbbbbbaa#aabbbbbbbbbbbaa#aabbbbbbbbbbbaa#aabbbbbbbbbbbaa",
"#aabbbbbbbbbbbaa#aabbbbbbbbbrbaa#aabbbbbbbbbbbaa#aabbbbbbbbbbbaa",
"#aabbbbbbbbbbbaa#aabbbbbbbrrrrra#aabbbbbbbbbbbaa#aabbbbbbbbbbbaa",
"#########################rrrrrr#################################",
"bbbbbbbbbbaa#aabbbbbbbbbbbrrrrrbbbbbbbbbbbaa#aabbbbbbbbbbbaa#aab",
"bbbbbbbbbbaa#aabbbbbbbbbbbrrrrrbbbbbbbbbbbaa#aabbbbbbbbbbbaa#aab",
"bbbbbbbbbbaa#aabbbbbbbbbbbrrrrrbbbbbbbbbbbaa#aabbbbbbbbbbbaa#aab",
"bbbbbbbbbbaa#aabbbbbbbbbbbaarrabbbbbbbbbbbaa#aabbbbbbbbbbbaa#aab",
"bbbbbbbbbbaa#aabbbbbbbbbbbaaraabbbbbbbbbbbaa#aabbbbbbbbbbbaa#aab",
"bbbbbbbbbbaa#aabbbbbbbbbbbaa#aabbbbbbbbbbbaa#aabbbbbbbbbbbaa#aab",
"bbbbbbbbbbaa#aabbbbbbbbbbbaa#aabbbbbbbbbbbaa#aabbbbbbbbbbbaa#aab"
};
