/* XPM */
static char *bone_e_xpm[] = {
"64 64 4 1",
". c #b8b09a",
"# c #1a0e08",
"a c #7a6a52",
"b c #dcd4ba",
"................................................................",
"................................................................",
"bbbbb............aaaaaaaaa............bbbbbbbbb............aaaaa",
"bbbbbbb........aaaaaaaaaaaaa........bbbbbbbbbbbbb........aaaaaaa",
"bbbbbbbb......aaaaaaaaaaaaaaa......bbbbbbbbbbbbbbb......aaaaaaaa",
"bbbbbbbbb....aaaaaaaaaaaaaaaa.....bbbbbbbbbbbbbbbb.....aaaaaaaaa",
"bbbbbbbbb....aaaaaaaaaaaaaaaaa....bbbbbbbbbbbbbbbbb....aaaaaaaaa",
"bbbbbbbbb....aaaaaaaaaaaaaaaaa....bbbbbbbbbbbbbbbbb....aaaaaaaaa",
"bbbbbbbbb....aaaaaaaaaaaaaaaaa....bbbbbbbbbbbbbbbbb....aaaaaaaaa",
"bbbbbbbbb....aaaaaaaaaaaaaaaaa....bbbbbbbbbbbbbbbbb....aaaaaaaaa",
"bbbbbbbbb....aaaaaaaaaaaaaaaaa....bbbbbbbbbbbbbbbbb....aaaaaaaaa",
"bbbbbbbb......aaaaaaaaaaaaaaa.....bbbbbbbbbbbbbbbb.....aaaaaaaaa",
"bbbbbbbb......aaaaaaaaaaaaaaa......bbbbbbbbbbbbbb#......aaaaaaaa",
"bbbbbbb........a#aaaaaaaaaaa........bbbbbbbbbbbb###......aaaaaaa",
"bbbb...........###aaaaaaa..............bbbbbb..#####........aaaa",
"..............#####.............................###.............",
"...............###...............................#..............",
"................#...............................................",
"aaaaaa..........bbbbbbbbbbb..........aaaaaaaaaaa..........bbbbbb",
"aaaaaaaa......bbbbbbbbbbbbbb.......aaaaaaaaaaaaaa.......bbbbbbbb",
"aaaaaaaa......bbbbbbbbbbbbbbb......aaaaaaaaaaaaaaa......bbbbbbbb",
"aaaaaaaaa....bbbbbbbbbbbbbbbbb....aaaaaaaaaaaaaaaaa....bbbbbbbbb",
"aaaaaaaaa....bbbbbbbbbbbbbbbbb....aaaaaaaaaaaaaa#aa....bbbbbbbbb",
"aaaaaaaaa....bbbbbbbbbbbbbbbbb....aaaaaaaaaaaaaaa#a....bbbbbbbbb",
"aaaaaaaaa....bbbbbbbbbbbbbbbbb....aaaaaaaaaaaaaaaaa....bbbbbbbbb",
"aaaaaaaaa....bbbbbbbbbbbbbbbbb....aaaaaaaaaaaaaa##a....bbbbbbbbb",
"aaaaaaaaa....bbbbbbbbbbbbbbbbb....aaaaaaaaaaaaa#aaa....bbbbbbbbb",
"aaaa#aaa......bbbbbbbbbbbbbbb......aaaaaaaaaaaaaaa#.....bbbbbbbb",
"aaa##aaa......bbbbbbbbbbbbbbb......aaaaaaaaaaaaaaa......bbbbbbbb",
"aaaaaa..........bbbbbbbbbbb..........aaaaaaaaaaa...#......bbbbbb",
"....##............................................#.............",
".....##.........................................................",
"......##........................................................",
"bb.....#............aaa..................bbb..................aa",
"bbbbbbb........aaaaaaaaaaaaa........bbbbbbbbbbbbb........aaaaaaa",
"bbbbbbbb......aaaaaaaaaaaaaaa......bbbbbbbbbbbbbbb......aaaaaaaa",
"bbbbbbbb......aaaaaaaaaaaaaaa......bbbbbbbbbbbbbbb.....aaaaaaaaa",
"bbbbbbbbb....aaaaaaaaaaaaaaaaa....bbbbbbbbbbbbbbbbb....aaaaaaaaa",
"bbbbbbbbb....aaaaaaaaaaaaaaaaa....bbbbbbbbbbbbbbbbb....aaaaaaaaa",
"bbbbbbbbb....aaaaaaaaaaaaa#aaa....bbbbbbbbbbbbbbbbb....aaaaaaaa#",
"bbbbbbbbb....aaaaaaaaaaaa#aaaa....bbbbbbbbbbbbbbbbb....aaaaaaaaa",
"bbbbbbbbb....aaaaaaaaaaaa##aaa....bbbbbbbbbbbbbbbbb....aaaaaaaa#",
"bbbbbbbbb....aaaaaaaaaaaaaaaaa....bbbbbbbbbbbbbbbb.....aaaaaaaa#",
"bbbbbbbb......aaaaaaaaa##aaaa......bbbbbbbbbbbbbbb......aaaaaa##",
"bbbbbbb........aaaaaaaa##aaa........bbbbbbbbbbbbb.......aaaaaa#a",
"bbbbbb..........aaaaaaaaaa...........bbbbbbbbbb...........aaaaaa",
"........................#.......................................",
".........................#......................................",
"........................#.......................................",
"aaaaa............bbbbbbb#b............aaaaaaaa.............bbbbb",
"aaaaaaa........bbbbbbbbbbb#b........aaaaaaaaaaaaa........bbbbbbb",
"aaaaaaaa......bbbbbbbbbb#####......aaaaaaaaaaaaaaa......bbbbbbbb",
"aaaaaaaa.....bbbbbbbbbbb#####.....aaaaaaaaaaaaaaaa.....bbbbbbbbb",
"a#aaaaaaa....bbbbbbbbbb#######....aaaaaaaaaaaaaaaaa....bbbbbbbbb",
"aa#aaaaaa....bbbbbbbbbbb#####b....aaaaaaaaaaaaaaaaa....bbbbbbbbb",
"#a#aaaaaa....bbbbbbbbbbb#####b....aaaaaaaaaaaaaaaaa....bbbbbbbbb",
"a####aaaa....bbbbbbbbbbbbb#bbb....aaaaaaaaaaaaaaaaa....bbbbbbbbb",
"aaa#aaaaa....bbbbbbbbbbbbbbbbb....aaaaaaaaaaaaaaaaa....bbbbbbbbb",
"aaaaaaaa.....bbbbbbbbbbbbbbbb.....aaaaaaaaaaaaaaaa.....bbbbbbbbb",
"aaaaaaaa......bbbbbbbbbbbbbbb......aaaaaaaaaaaaaaa......bbbbbbbb",
"aaaaaaa........bbbbbbbbbbbbb........aaaaaaaaaaaaa........bbbbbbb",
"aaaa..............bbbbbbb..............aaaaaaa.............bbbbb",
"................................................................",
"................................................................"
};
