/* XPM */
static char *east_xpm[] = {
"32 32 7 1",
"  c #060101",
". c #1c0f0f",
"# c #221212",
"@ c #2e1818",
"$ c #140909",
"% c #4a0000",
"& c #2e0000",
"                                ",
"##########.##########.##########",
"#@@@@@@@@#.#@@@@@@@@#.#@@@@@@@@#",
"#@$&&&$$@#.#@$$$$$$@#.#@$&&&$$@#",
"#@$&&%$.$#.#@$.....$#.#@$&&%$.$#",
"#@$&&&$$#.##@$.....$#.##@$&&&$$#",
"#@$$$$$$@#.#@$$$$$$@#.#@$$$$$$@#",
"##########.##########.##########",
"                                ",
"#####.##########.##########.####",
"@@@@#.#@@@@@@@@#.#@@@@@@@@#.#@@@",
"$$@@#.#@$$&&&$@#.#@$$$$$@@#.#$$@",
"...@#.#@$&&%.$#.#@$.....$#.#...",
"...@#.#@$&&%.$#.#@$.....$#.#...",
"$$@@#.#@$$&&&$@#.#@$$$$$$@#.#$$@",
"#####.##########.##########.####",
"                                ",
"##########.##########.##########",
"#@@@@@@@@#.#@@@@@@@@#.#@@@@@@@@#",
"#@$$$$$$@#.#@$&&&$$@#.#@$$$$$$@#",
"#@$.....$#.#@$&&%$.$#.#@$.....$#",
"#@$.....$#.#@$&&%$.$#.#@$.....$#",
"#@$$$$$$@#.#@$&&&$$@#.#@$$$$$$@#",
"##########.##########.##########",
"                                ",
"#####.##########.##########.####",
"@@@@#.#@@@@@@@@#.#@@@@@@@@#.#@@@",
"$$@@#.#@$$$$$$@#.#@$&&&$$@#.#$$@",
"...@#.#@$.....$#.#@$&&%$.$#.#...",
"...@#.#@$.....$#.#@$&&%$.$#.#...",
"$$@@#.#@$$$$$$@#.#@$&&&$$@#.#$$@",
"#####.##########.##########.####"
};
