/* XPM */
static char *ghost_xpm[] = {
"64 96 7 1",
". c None",
"# c #050505",
"a c #2a2a2a",
"b c #4d4d4d",
"c c #7d7d7d",
"d c #b8b8b8",
"e c #e8e8ec",
"................................d...............................",
".......................bbcccdddddddddcccbb......................",
"...................abbccccdddddddddddddccccbba..................",
".................abbcccccdddddddddddddddcccccbba................",
"................abbccccccdddddddddddddddccccccbba...............",
"...............abbbccccccdddddddddddddddccccccbbba..............",
"...........aabbbcccccccdddddddddddddddddddcccccccbbbaa..........",
"...........aabbbcccccccdddddddddddddddddddcccccccbbbaa..........",
"...........aabbbcccccccddeeeddddddddddddddcccccccbbbaa..........",
"...........aabbbcccccccddeeeddddddddddddddcccccccbbbaa..........",
"...........abbbccccccccddeeeddddddddddddddccccccccbbba..........",
"..........aabbbccccccccddeeeddddddddddddddccccccccbbbaa.........",
"..........aabbbcccccccdddeeedddddddddddddddcccccccbbbaa.........",
"..........aabbbcccccccdddeeedddddddddddddddcccccccbbbaa.........",
"..........aabbbcccccccdddeeedddddddddddddddcccccccbbbaa.........",
"..........aabbbcccccccdd#eeedddddddddddd#ddcccccccbbbaa.........",
"..........abbbbccccccc#####edddddddddd#####cccccccbbbba.........",
"..........abbbbcccccc#######ddddddddd#######ccccccbbbba.........",
".........aabbbccccccc#######ddddddddd#######cccccccbbbaa........",
".........aabbbccccccc#######ddddddddd#######cccccccbbbaa........",
".........aabbbcccccc#########ddddddd#########ccccccbbbaa........",
".........aabbbccccccc#######ddddddddd#######cccccccbbbaa........",
".........aabbbccccccc#######ddddddddd#######cccccccbbbaa........",
".........aabbbccccccc#######ddddddddd#######cccccccbbbaa........",
".........aabbbcccccccc#####edddddddddd#####ccccccccbbbaa........",
".........aabbbccccccccdd#eeedddddddddddd#ddccccccccbbbaa........",
".........aabbbccccccccdd#eeedddddddddddd#ddccccccccbbbaa........",
".........aabbbccccccccdd#eeedddddddddddd#ddccccccccbbbaa........",
".........abbbbccccccccdd#eeedddd#ddddddd#ddccccccccbbbba........",
".........abbbbccccccccdd#eeeddd###dddddd#ddccccccccbbbba........",
".........abbbbccccccccdd#eeeddbbbbbddddd#ddccccccccbbbba........",
".........abbbbccccccccdd#eeed#######dddd#ddccccccccbbbba........",
"........aabbbbccccccccdd#eeed#######dddd#ddccccccccbbbbaa.......",
"........aabbbbccccccccdddeeed#######dddddddccccccccbbbbaa.......",
"........aabbbbccccccccdddeeed#######dddddddccccccccbbbbaa.......",
"........aabbbbccccccccdddeeed#######dddddddccccccccbbbbaa.......",
"........aabbbcccccccccdddeee#########ddddddcccccccccbbbaa.......",
"........aabbbccccccccddddeeed#######ddddddddccccccccbbbaa.......",
"........aabbbccccccccddddeeed#######ddddddddccccccccbbbaa.......",
"........aabbbccccccccddddeeed#######ddddddddccccccccbbbaa.......",
"........aabbbccccccccddddeeed#######ddddddddccccccccbbbaa.......",
"........aabbbccccccccddddeeed#######ddddddddccccccccbbbaa.......",
"........aabbbccccccccddddeeedd#####dddddddddccccccccbbbaa.......",
".......aabbbbccccccccddddeeeddd###ddddddddddccccccccbbbbaa......",
".......aabbbbccccccccddddeeedddd#dddddddddddccccccccbbbbaa......",
".......aabbbbccccccccddddeeeddddddddddddddddccccccccbbbbaa......",
".......aabbbbccccccccddddeeeddddddddddddddddccccccccbbbbaa......",
".......aabbbbccccccccddddeeeddddddddddddddddccccccccbbbbaa......",
".......aabbbbccccccccddddeeeddddddddddddddddccccccccbbbbaa......",
".......aabbbbccccccccddddeeeddddddddddddddddccccccccbbbbaa......",
".......aabbbbccccccccddddeeeddddddddddddddddccccccccbbbbaa......",
".......aabbbcccccccccddddeeeddddddddddddddddcccccccccbbbaa......",
".......aabbbcccccccccddddeeeddddddddddddddddcccccccccbbbaa......",
".......aabbbcccccccccddddeeeddddddddddddddddcccccccccbbbaa......",
"......aaabbbcccccccccddddeeeddddddddddddddddcccccccccbbbaaa.....",
".......aabbbcccccccccddddeeeddddddddddddddddcccccccccbbbaa......",
".......aabbbcccccccccddddeeeddddddddddddddddcccccccccbbbaa......",
".......aabbbcccccccccddddeeeddddddddddddddddcccccccccbbbaa......",
".......aabbbbccccccccddddeeeddddddddddddddddccccccccbbbbaa......",
".......aabbbbccccccccddddeeeddddddddddddddddccccccccbbbbaa......",
".......aabbbbccccccccddddeeeddddddddddddddddccccccccbbbbaa......",
".......aabbbbccccccccddddeeeddddddddddddddddccccccccbbbbaa......",
".......aabbbbccccccccddddeeeddddddddddddddddccccccccbbbbaa......",
".......aabbbbccccccccddddeeeddddddddddddddddccccccccbbbbaa......",
".......aabbbbccccccccddddeeeddddddddddddddddccccccccbbbbaa......",
".......aabbbbccccccccddddeeeddddddddddddddddccccccccbbbbaa......",
"........aabbbccccccccddddeeeddddddddddddddddccccccccbbbaa.......",
"........aabbbccccccccddddeeeddddddddddddddddccccccccbbbaa.......",
"........aabbbccccccccddddeeeddddddddddddddddccccccccbbbaa.......",
"........aabbbccccccccddddeeeddddddddddddddddccccccccbbbaa.......",
"........aabbbccccccccdddddddddddddddddddddddccccccccbbbaa.......",
"........aabbbccccccccdddddddddddddddddddddddccccccccbbbaa.......",
"........aabbbcccccccccdddddddddddddddddddddcccccccccbbbaa.......",
"........aabbbbccccccccdddddddddddddddddddddccccccccbbbbaa.......",
"........aabbbbccccccccdddddddddddddddddddddccccccccbbbbaa.......",
"........aabbbbccccccccdddddddddddddddddddddccccccccbbbbaa.......",
"......aaabbbcccccccccdddddddddddddddddddddddcccccccccbbbaaa.....",
".......aabbbbccccccccdddddddddddddddddddddddccccccccbbbbaa......",
"........aabbbcccccccccdddddddddddddddddddddcccccccccbbbaa.......",
".........aabbbccccccccdddddddddddddddddddddccccccccbbbaa........",
"..........abbbbcccccccdddddddddddddddddddddcccccccbbbba.........",
"..........aabbbccccccccdddddddddddddddddddccccccccbbbaa.........",
"...........aabbbcccccccdddddddddddddddddddcccccccbbbaa..........",
"............aabbcccccccdddddddddddddddddddcccccccbbaa...........",
".............abbbcccccccddddddd.....dddddccccc..................",
"..............abbbccccccddddddd.....dddddccccc..................",
"..............aabbccccccdddddd......dddddccccc....a.............",
"...............abbbccccccddddd......ddddccccc...................",
"................abbbcccccddddd.....dddddccccc...................",
".................abbcccccdddd......dddddccccc...................",
".................aabbcccccddd.....dddddcccccbbaa................",
"..................abbcccccddd.....dddddcccccbba.................",
"...................abbccccdd......dddddccccbba..................",
"....................abbccccd.....dddddccccbba...................",
".....................bbccccd.....dddddccccbb....................",
".....................abbccc......dddddcccbba...................."
};
