/* XPM */
static char *gun_xpm[] = {
"128 96 5 1",
". c None",
"# c #050505",
"@ c #1f1f1f",
"$ c #3a3a3a",
"% c #6a6a6a",
"................................................................................................................................",
"................................................................................................................................",
"................................................................................................................................",
"................................................................................................................................",
"................................................................................................................................",
"................................................................................................................................",
"................................................................................................................................",
"................................................................................................................................",
"................................................................................................................................",
"................................................................................................................................",
"................................................................................................................................",
"................................................................................................................................",
"................................................................................................................................",
"................................................................................................................................",
"................................................................................................................................",
"................................................................................................................................",
"................................................................................................................................",
"................................................................................................................................",
"................................................................................................................................",
"................................................................................................................................",
"................................................................................................................................",
"................................................................................................................................",
"................................................................................................................................",
"................................................................................................................................",
"................................................................................................................................",
"................................................................................................................................",
"................................................................................................................................",
"................................................................................................................................",
"................................................................................................................................",
"................................................................................................................................",
"................................................................................................................................",
"................................................................................................................................",
"................................................................................................................................",
"................................................................................................................................",
"................................................................................................................................",
"................................................................................................................................",
".................####..........................................................####.............................................",
".................####..........................................................####.............................................",
"............############################################################################........................................",
"............#@@@@@@@@@@@@@@@@@@@@@@@@@@@@@@@@@@@@@@@@@@@@@@@@@@@@@@@@@@@@@@@@@@@@@@@@@@#........................................",
"............#@@@@@@@@@@@@@@@@@@@@@@@@@@@@@@@@@@@@@@@@@@@@@@@@@@@@@@@@@@@@@@@@@@@@@@@@@@#........................................",
"...............$$$$$$$$$$$$$$$$$$$$$$$$$$$$$$$$$$$$$$$$$$$$$$$$$$$$$$$$$$$$$$$$$$$$$$$@#........................................",
".............#.$$$$$$$$$$$$$$$$$$$$$$$$$$$$$$$$$$$$$$$$$$$$$$$$$$$$$$$$$$$$$$$$$$$$$$$@#........................................",
".............#.$$$$$$$$$$$$$$$$$$$$$$$$$$$$$$$$$$$$$$$$$$$$$$$$$$$$$$$$$$$$$$$$$$$$$$$@#........................................",
".............#.$$$$$$$$$$$$$$$$$$$$$$$$$$$$$$$$$$$$$$$$$$$$$$$$$$$$$$$$$$$$$$$$$$$$$$$@#........................................",
".............#.$$$$$$$$$$$$$$$$$$$$$$$$$$$$$$$$$$$$$$$$$$$$$$$$$$$$$$$$$$$$$$$$$$$$$$$@#........................................",
".............#.$$$$$$$$$$$$$$$$$$$$$$$$$$$$$$$$$$$$$$$$$$$$$$$$$$$$$$$$$$$$$$$$$$$$$$$@#........................................",
".............#.$$$$$$$$$$$$$$$$$$$$$$$$$$$$$$$$$$$$$$$$$$$$$$$$$$$$$$$$$$$$$$$$$$$$$$$@#........................................",
".............#.$$$$$$$$$$$$$$$$$$$$$$$$$$$$$$$$$$$$$$$$$$$$$$$$$$$$$$$$$$$$$$$$$$$$$$$@#........................................",
".............#.$$$$$$$$$$$$$$$$$$$$$$$$$$$$$$$$$$$$$$$$$$$$$$$$$$$$$$$$$$$$$$$$$$$$$$$@#........................................",
".............#.$$$$$$$$$$$$$$$$$$$$$$$$$$$$$$$$$$$$$$$$$$$$$$$$$$$$$$$$$$$$$$$$$$$$$$$@#........................................",
".............#.$$$$$$$$$$$$$$$$$$$$$$$$$$$$$$$$$$$$$$$$$$$$$$$$$$$$$$$$$$$$$$$$$$$$$$$@#........................................",
"...............$$$$$$$$$$$$$$$$$$$$$$$$$$$$$$$$$$$$$$$$$$$$$$$$$$$$$$$$$$$$$$$$$$$$$$$@#........................................",
"............#@@@@@@@@@@@@@@@@@@@@@@@@@@@@@@@@@@@@@@@@@@@@@@@@@@@@@@@@@@@@@@@@@@@@@@@@@@#........................................",
"............#@@@@@@@@@@@@@@@@@@@@@@@@@@@@@@@@@@@@@@@@@@@@@@@@@@@@@@@@@@@@@@@@@@@@@@@@@@#........................................",
"............############################################################################........................................",
"..............................................................##......##@@$$$$$$$$$$@@##........................................",
"..............................................................##......##@@$$$$$$$$$$@@##........................................",
"..............................................................##......##@@$$$$$$$$$$@@##........................................",
"..............................................................##......##@@$$$$$$$$$$@@##........................................",
"..............................................................##......##@@$$$$$$$$$$@@##........................................",
"..............................................................##......##@@$$$$$$$$$$@@##........................................",
"..............................................................##......##@@$$$$$$$$$$@@##........................................",
"..............................................................##......##@@$$$$$$$$$$@@##........................................",
"..............................................................##......##@@$$$$$$$$$$@@##........................................",
"..............................................................##......##@@$$$$$$$$$$@@##........................................",
"..............................................................##########@@$$$$$$$$$$@@##........................................",
"..............................................................##########@@$$$$$$$$$$@@##........................................",
"......................................................................##@@$$$$$$$$$$@@##........................................",
"......................................................................##@@$$$$$$$$$$@@##........................................",
"......................................................................##@@$$$$$$$$$$@@##........................................",
"......................................................................##@@$$$$$$$$$$@@##........................................",
"......................................................................##@@$$$$$$$$$$@@##........................................",
"......................................................................##@@$$$$$$$$$$@@##........................................",
"......................................................................##@@$$$$$$$$$$@@##........................................",
"......................................................................##@@$$$$$$$$$$@@##........................................",
"......................................................................##@@$$$$$$$$$$@@##........................................",
"......................................................................##@@$$$$$$$$$$@@##........................................",
"......................................................................##@@$$$$$$$$$$@@##........................................",
"......................................................................##@@$$$$$$$$$$@@##........................................",
"......................................................................##@@$$$$$$$$$$@@##........................................",
"......................................................................##@@$$$$$$$$$$@@##........................................",
"......................................................................##@@$$$$$$$$$$@@##........................................",
"......................................................................##@@$$$$$$$$$$@@##........................................",
"......................................................................##@@@@@@@@@@@@@@##........................................",
"......................................................................##@@@@@@@@@@@@@@##........................................",
"......................................................................##@@@@@@@@@@@@@@##........................................",
"......................................................................##@@@@@@@@@@@@@@##........................................",
"......................................................................##################........................................",
"......................................................................##################........................................",
"................................................................................................................................",
"................................................................................................................................",
"................................................................................................................................",
"................................................................................................................................",
"................................................................................................................................",
"................................................................................................................................"
};
