/* XPM */
static char *knife_xpm[] = {
"128 96 5 1",
". c None",
"# c #050505",
"s c #b0b0b8",
"h c #f0f0f8",
"b c #3a2210",
"................................................................................................................................",
"................................................................................................................................",
"................................................................................................................................",
"................................................................................................................................",
"................................................................................................................................",
"........................................#.......................................................................................",
".........................................#......................................................................................",
"..........................................#.#sssssssssssssssssssshsssssssssssssssssss#..........................................",
"...........................................#.#sssssssssssssssssssshsssssssssssssssssss#.........................................",
".............................................#sssssssssssssssssssshsssssssssssssssssss#.........................................",
"..............................................#sssssssssssssssssssshsssssssssssssssssss#........................................",
"...............................................#sssssssssssssssssssshsssssssssssssssssss#.......................................",
"...............................................#sssssssssssssssssssshsssssssssssssssssss#.......................................",
"................................................#sssssssssssssssssssshsssssssssssssssssss#......................................",
".................................................#sssssssssssssssssssshsssssssssssssssssss#.....................................",
".................................................#sssssssssssssssssssshsssssssssssssssssss#.....................................",
"..................................................#sssssssssssssssssssshsssssssssssssssssss#....................................",
"...................................................#sssssssssssssssssssshsssssssssssssssssss#...................................",
"...................................................#sssssssssssssssssssshsssssssssssssssssss#...................................",
"....................................................#sssssssssssssssssssshsssssssssssssssssss#..................................",
".....................................................#sssssssssssssssssssshsssssssssssssssssss#.................................",
".....................................................#sssssssssssssssssssshsssssssssssssssssss#.................................",
"......................................................#sssssssssssssssssssshsssssssssssssssssss#................................",
".......................................................#sssssssssssssssssssshsssssssssssssssssss#...............................",
".......................................................#sssssssssssssssssssshsssssssssssssssssss#...............................",
"........................................................#sssssssssssssssssssshsssssssssssssssssss#..............................",
".........................................................#sssssssssssssssssssshsssssssssssssssssss#.............................",
".........................................................#sssssssssssssssssssshsssssssssssssssssss#.............................",
"..........................................................#sssssssssssssssssssshsssssssssssssssssss#............................",
"...........................................................#sssssssssssssssssssshsssssssssssssssssss#...........................",
"...........................................................#sssssssssssssssssssshsssssssssssssssssss#...........................",
"............................................................#sssssssssssssssssssshsssssssssssssssssss#..........................",
".............................................................#sssssssssssssssssssshsssssssssssssssssss#.........................",
".............................................................#sssssssssssssssssssshsssssssssssssssssss#.........................",
"..............................................................#sssssssssssssssssssshsssssssssssssssssss#........................",
"...............................................................#sssssssssssssssssssshsssssssssssssssssss#.......................",
"...............................................................#sssssssssssssssssssshsssssssssssssssssss#.......................",
"................................................................#sssssssssssssssssssshsssssssssssssssssss#......................",
".................................................................#sssssssssssssssssssshsssssssssssssssssss#.....................",
".................................................................#sssssssssssssssssssshsssssssssssssssssss#.....................",
"..................................................................#sssssssssssssssssssshsssssssssssssssssss#....................",
"...................................................................#sssssssssssssssssssshsssssssssssssssssss#...................",
"...................................................................#sssssssssssssssssssshsssssssssssssssssss#...................",
"....................................................................#sssssssssssssssssssshsssssssssssssssssss#..................",
".....................................................................#sssssssssssssssssssshsssssssssssssssssss#.................",
".....................................................................#sssssssssssssssssssshsssssssssssssssssss#.................",
"......................................................................#sssssssssssssssssssshsssssssssssssssssss#................",
".......................................................................#sssssssssssssssssssshsssssssssssssssssss#...............",
".......................................................................#sssssssssssssssssssshsssssssssssssssssss#...............",
"........................................................................#sssssssssssssssssssshsssssssssssssssssss#..............",
".........................................................................#sssssssssssssssssssshsssssssssssssssssss#.............",
".........................................................................#sssssssssssssssssssshsssssssssssssssssss#.............",
"........................................................................###sssssssssssssssssssshsssssssssssssssssss###..........",
"........................................................................#ss#sssssssssssssssssssshsssssssssssssssssss##..........",
"........................................................................#ss#sssssssssssssssssssshsssssssssssssssssss##..........",
"........................................................................#ssssssssssssssssssssssssssssssssssssssssssss#..........",
"........................................................................#ssssssssssssssssssssssssssssssssssssssssssss#..........",
"........................................................................##############################################..........",
"............................................................................##bbbbbbbbbbbbbbbbbbbbbbbbbbbbbbbbbbbb##............",
"............................................................................##bbbbbbbbbbbbbbbbbbbbbbbbbbbbbbbbbbbb##............",
"............................................................................########################################............",
"............................................................................########################################............",
"............................................................................##bbbbbbbbbbbbbbbbbbbbbbbbbbbbbbbbbbbb##............",
"............................................................................##bbbbbbbbbbbbbbbbbbbbbbbbbbbbbbbbbbbb##............",
"............................................................................########################################............",
"............................................................................########################################............",
"............................................................................##bbbbbbbbbbbbbbbbbbbbbbbbbbbbbbbbbbbb##............",
"............................................................................##bbbbbbbbbbbbbbbbbbbbbbbbbbbbbbbbbbbb##............",
"............................................................................########################################............",
"............................................................................########################################............",
"............................................................................##bbbbbbbbbbbbbbbbbbbbbbbbbbbbbbbbbbbb##............",
"............................................................................##bbbbbbbbbbbbbbbbbbbbbbbbbbbbbbbbbbbb##............",
"............................................................................########################################............",
"............................................................................########################################............",
"............................................................................##bbbbbbbbbbbbbbbbbbbbbbbbbbbbbbbbbbbb##............",
"............................................................................##bbbbbbbbbbbbbbbbbbbbbbbbbbbbbbbbbbbb##............",
"............................................................................########################################............",
"............................................................................########################################............",
"............................................................................##bbbbbbbbbbbbbbbbbbbbbbbbbbbbbbbbbbbb##............",
"............................................................................##bbbbbbbbbbbbbbbbbbbbbbbbbbbbbbbbbbbb##............",
"............................................................................########################################............",
"............................................................................########################################............",
"............................................................................##bbbbbbbbbbbbbbbbbbbbbbbbbbbbbbbbbbbb##............",
"............................................................................##bbbbbbbbbbbbbbbbbbbbbbbbbbbbbbbbbbbb##............",
"............................................................................########################################............",
"............................................................................########################################............",
"............................................................................##bbbbbbbbbbbbbbbbbbbbbbbbbbbbbbbbbbbb##............",
"............................................................................##bbbbbbbbbbbbbbbbbbbbbbbbbbbbbbbbbbbb##............",
"............................................................................########################################............",
"............................................................................########################################............",
"................................................................................................................................",
"................................................................................................................................",
"................................................................................................................................",
"................................................................................................................................",
"................................................................................................................................",
"................................................................................................................................"
};
