/* XPM */
static char *south_xpm[] = {
"32 32 5 1",
"  c #070202",
". c #200f0f",
"# c #2a1818",
"@ c #381f1f",
"$ c #180c0c",
"                                ",
"##########.##########.##########",
"#@@@@@@@@#.#@@@@@@@@#.#@@@@@@@@#",
"#@$$$$$$@#.#@$$$$$$@#.#@$$$$$$@#",
"#@$.....$#.#@$.....$#.#@$.....$#",
"#@$.....$#.#@$.....$#.#@$.....$#",
"#@$$$$$$@#.#@$$$$$$@#.#@$$$$$$@#",
"##########.##########.##########",
"                                ",
"#####.##########.##########.####",
"@@@@#.#@@@@@@@@#.#@@@@@@@@#.#@@@",
"$$@@#.#@$$$$$$@#.#@$$$$$$@#.#$$@",
"...@#.#@$.....$#.#@$.....$#.#...",
"...@#.#@$.....$#.#@$.....$#.#...",
"$$@@#.#@$$$$$$@#.#@$$$$$$@#.#$$@",
"#####.##########.##########.####",
"                                ",
"##########.##########.##########",
"#@@@@@@@@#.#@@@@@@@@#.#@@@@@@@@#",
"#@$$$$$$@#.#@$$$$$$@#.#@$$$$$$@#",
"#@$.....$#.#@$.....$#.#@$.....$#",
"#@$.....$#.#@$.....$#.#@$.....$#",
"#@$$$$$$@#.#@$$$$$$@#.#@$$$$$$@#",
"##########.##########.##########",
"                                ",
"#####.##########.##########.####",
"@@@@#.#@@@@@@@@#.#@@@@@@@@#.#@@@",
"$$@@#.#@$$$$$$@#.#@$$$$$$@#.#$$@",
"...@#.#@$.....$#.#@$.....$#.#...",
"...@#.#@$.....$#.#@$.....$#.#...",
"$$@@#.#@$$$$$$@#.#@$$$$$$@#.#$$@",
"#####.##########.##########.####"
};
