/* XPM */
static char *torch_xpm[] = {
"32 32 6 1",
"  c None",
". c #000000",
"# c #8B4513",
"@ c #CD853F",
"$ c #FF8C00",
"% c #FFD700",
"                                ",
"                                ",
"            %%%%$$$$            ",
"          %%$$$$$$$$%%          ",
"         %$$$$$$$$$$$$%         ",
"          %%$$$$$$$$%%          ",
"            $$$$$$$$            ",
"            $$$$$$$$            ",
"           #$$$$$$$$#           ",
"          ##$$$$$$$$##          ",
"         ###$$$$$$$$###         ",
"         ###$$$$$$$$###         ",
"         ###$$$$$$$$###         ",
"          ##$$$$$$$$##          ",
"          ##$$$$$$$$##          ",
"          ##$$$$$$$$##          ",
"          ##$$$$$$$$##          ",
"          ##$$$$$$$$##          ",
"          ###@@@@@@###          ",
"          ###@@@@@@###          ",
"         ####@@@@@@####         ",
"         ####@@@@@@####         ",
"         ####@@@@@@####         ",
"         ####@@@@@@####         ",
"         #########              ",
"         #####                  ",
"         ###                    ",
"         ##                     ",
"                                ",
"                                ",
"                                ",
"                                "
};
