/* XPM */
static char *wood_w_xpm[] = {
"64 64 5 1",
". c #3a1e08",
"# c #1c0e02",
"a c #3a1e08",
"b c #5a2e12",
"c c #7a4220",
"#aaaaaaaaaaaaaa##################aaaaabbbbbbbbb##aaaaaaabbbbbbb#",
"#a###############aaaaaaaaaaaaaa###aaaaaaaaaaaaa##bbbbbbbbbbcccc#",
"#################bbbbbbbbbbbbbb############aaaa##cccccccccccccc#",
"#################bbbbbbbbbbbbbc##################cccccccccccccc#",
"#################bbb#bbbbbbbbcc##################ccc#cccccccccc#",
"#################bbbbbbbbbbbbbb##########aaaaaa##cccccccccccccc#",
"#a###############aaaaaaaaaabbbb##aaaaaaaaaaaabb##cccccccccccccc#",
"#aaaaaaaaaaaaaa#######aaaaaaaaa##bbbbbbbbbbbbbb##cccccccccccccb#",
"#bbbbbbbbbbbbbb##################cccccccccccccc##bbbbbbbbbbbbbb#",
"#bbbbbbbbbbbbbb##################cccccccccccccc##aaaaaaaaaaaaaa#",
"#bbbbbbbbbbbbbb##################cccccccccccccc##aaaaaaaaaaaaa##",
"#bbbbbbbbbbbbbb###############a##cccccccccccccc##aaaaaaaaaaaa###",
"#aaaaaaaaaaaaaa####aaaaaaaaaaaa##cccccccccccccc##aaaaaaaaaaaaaa#",
"###########aaaa##aabbbbbbbbbbbb##bbbbcccccccccc##bbbbbbbbbbbbaa#",
"#################bbbbcccccccccc##bbbbbbbbbbbbbb##cccccccbbbbbbb#",
"#################cccccccccccccc##aaaaaaaaaaaaaa##cccccccccccccc#",
"#################cccccccccccccc##aaaaaaaaaaaaaa##cccccccccccccc#",
"#################cccccccccccccc##aaaaaaaaaaaaaa##cccccccccccccc#",
"#######aaaaaaaa##cccccccccccccc##aaaaaaaaaaaaaa##cccccccccccbbb#",
"#aaaaaaabbbbbbb##bbbbbbbbbccccc##bbbbbbbbbbbbbb##bbbbbbbbbbbbbb#",
"#bbbbbbbbbccccc##aabbbbbbbbbbbb##ccccccccccccbb##baaaaaaaaaaaaa#",
"#cccccccccccccc##aaaaaaaaaaaaaa##cccccccccccccc##aa#############",
"#cccccccccccccc##aaaaaaaaaaaaaa##cccccccccccccc#################",
"#cccccccccccccc##aaaaaaaaaaaaaa##cccccccccccccc#################",
"#bccccccccccccc##aaaaaaaaaaaaaa##cccccccccccccc#################",
"#bbbbbbbbbbbbbb##bbbbbbbbbbbbbb##ccccbbbbbbbbbb#################",
"#aaaaaaabbbbbbb##cccccccccccccc##bbbbbaaaaaaaaa##aaaaaaaaaaaaaa#",
"#aaaaaaaaaaaaaa##cccccccccccccc##aaaaaaa#########bbbbbaaaaaaaaa#",
"####aaaaaaaaaaa##cccccccccccccc##################bbbbbbbbbbbbbb#",
"#aaaaaaaaaaaaaa##cccccccccccccc##################bbbbbbbbbbbbbb#",
"#aaaaaaaaaaaaaa##cccccccccccccc##################bbbbbbbbbbbbbb#",
"#bbbbbbbbbbbbbb##cccccccccbbbbb##aaa#############bbbbaaaaabbbbb#",
"#cccccccccccccc##bbbbbbbbbbaaaa##aaaaaaaaaaaaaa##aaaaaaaaaaaaaa#",
"#cccccccccccccc##aaaaaaaaaaaa####bbbbbbbbbbaaaa#################",
"#cccccccccccccc##aa##############bbbbbbbbbbbbbb#################",
"#cccccccccccccc##################cccbbbbbbbbbbb#################",
"#ccc#cccccccccc##a###############bbb#bbbbbbbbbb#################",
"#cccccccccccccc##aaaaaaaa########bbbbbbbbbaaaab#################",
"#bbbbbbbbbbbbbb##bbbaaaaaaaaaaa##aaaaaaaaaaaaaa#########aaaaaaa#",
"#aaaaaaaaaaaaaa##bbbbbbbbbbbbbb##################aaaaaaaabbbbbb#",
"#aaaaaaa#########cccccbbbbbbbbb##################bbbbbbbbbbcccc#",
"#aaa#############cccccccbbbbbbb##################bccccccccccccc#",
"#aaaaa###########cccbbbbbbbbbbb##################cccccccccccccc#",
"#aaaaaaaaaaaa####bbbbbbbbbbbbba##################bbcccccccccccc#",
"#bbbbbbbbaaaaaa##aaaaaaaaaaaaaa##############aa##bbbbbbbbbccccc#",
"#cccbbbbbbbbbbb##################aaaaaaaaaaaaab##aaaaabbbbbbbbb#",
"#ccccccccccbbbb##################bbbbbbbbbbbbbb##aaaaaaaaaaaaaa#",
"#ccccccccccccbb##################bbbbbbcccccccc########aaaaaaaa#",
"#ccccccccbbbbbb##################bbbccccccccccc#########aaaaaaa#",
"#bbbbbbbbbbbbbb##################bbbbbbcccccccc####aaaaaaaaaaaa#",
"#aaaaaaaaaaaaaa##################bbbbbbbbbbbbbb##aaaaaaaaabbbbb#",
"#################aaaaaaaaaaaaaa##aaaaaaaaabbbbb##bbbbbbbbbbbbbb#",
"#################bbbbbbbbbbbbbb######aaaaaaaaaa##cccccccccccccc#",
"#################bbbbbbbbbbbccc#############aaa##cccccccccccccc#",
"#################bbbbbbbbcccccc##############aa##cccccccccccccc#",
"#################bbbbbbbbbbbccc#########aaaaaaa##cccccccccccccc#",
"#################aaaabbbbbbbbbb##aaaaaaaaaaaaaa##cccccccccccccc#",
"#aaaaaaaaaaaaaa##aaaaaaaaaaaaaa##bbbbbbbbbbbbbb##cccccccccccccc#",
"#bbbbbbbbbbbbbb###########aaaaa##cccccccccccccc##bbbbbbbbbbbbbb#",
"#bbbbbbbbbbbbbb##################cccccccccccccc##aaaaaaaaaaaaaa#",
"#bbbbbbbbbbbbbc##################cccccccccccccc##aaaaaaaaaa#####",
"#bbbbbbbbbbbbbb##############aa##cccccccccccccc##aaaaaaaa#######",
"#aaaaaaaabbbbbb###aaaaaaaaaaaaa##cccccccccccccc##aaaaaaaaaaaa###",
"###aaaaaaaaaaaa##aaabbbbbbbbbbb##cccccccccccccc##bbbbbbaaaaaaaa#"
};
